!!!!SEGMENT: pl-wtm--r-1740-m--001-001_moniuszko-stanislaw--sonety-krymskie-intrada.krn
!!!cenid: 18xx:2908
!!!COM: Moniuszko, Stanisław
!!!COM-rismid: pe30008351
!!!CDT: 1819/05/05-1872/06/04
!!!CNT: Polish
!!!OTL: Sonety krymskie – Intrada
!!!PDT:
!!!AGN: Secular; Sonnet
!!!SMS-siglum: PL-Wtm
!!!SMS-shelfmark: R 1740/M
!!!SMS-shelfwork: 001-001 G
!!!SMS-variant:
!!!SMS-altvar:
!!!NIFC-rismid: 1001096343
!!!URL-scan: http://repozytorium.nifc.pl/skany/pl-wtm-nut--r1740m
!!!ONB-nifc: UWAGA: w zbiorze 2 aranżacje Sonetów. Pliki nr 001-001-010 w obsadzie vl (2), vla, vlc, cb, physharmonica, pf 4hands i pliki 002-001-009 na instrumenty dęte od skanu 0088.
!!!OMD: Largo.
**kern	**dynam	**kern	**kern	**dynam	**kern	**dynam	**kern	**dynam	**kern	**dynam	**kern	**dynam	**kern	**dynam	**kern	**kern	**dynam	**kern	**kern	**dynam
*part9	*part9	*part8	*part7	*part7	*part6	*part6	*part5	*part5	*part4	*part4	*part3	*part3	*part3	*part3	*part2	*part2	*part2	*part1	*part1	*part1
*staff12	*	*staff11	*staff10	*	*staff9	*	*staff8	*	*staff7	*	*staff6	*	*staff5	*	*staff4	*staff3	*	*staff2	*staff1	*
*I"CB,	*	*	*I"Vcell	*	*I"Vla.	*	*I"V. 2.	*	*I"V. 1.	*	*I"Fortepian.	*	*I"Fortepian.	*	*I"Fortepian.	*I"Fortepian.	*	*I"Physharmonica.	*I"Physharmonica.	*
*	*	*	*	*	*	*	*	*	*I'V. 1.	*	*	*	*	*	*	*	*	*	*	*
*clefF4	*	*clefF4	*clefF4	*	*clefC3	*	*clefG2	*	*clefG2	*	*clefF4	*	*clefF4	*	*clefG2	*clefG2	*	*clefF4	*clefG2	*
*Trd0c0	*	*Trd0c0	*	*	*	*	*	*	*	*	*	*	*	*	*	*	*	*	*	*
*k[f#c#g#]	*	*k[f#c#g#]	*k[f#c#g#]	*	*k[f#c#g#]	*	*k[f#c#g#]	*	*k[f#c#g#]	*	*k[f#c#g#]	*	*k[f#c#g#]	*	*k[f#c#g#]	*k[f#c#g#]	*	*k[f#c#g#]	*k[f#c#g#]	*
*b:	*	*b:	*b:	*	*b:	*	*b:	*	*b:	*	*b:	*	*b:	*	*b:	*b:	*	*b:	*b:	*
*M4/4	*	*M4/4	*M4/4	*	*M4/4	*	*M4/4	*	*M4/4	*	*M4/4	*	*M4/4	*	*M4/4	*M4/4	*	*M4/4	*M4/4	*
*met(c)	*	*met(c)	*met(c)	*	*met(c)	*	*met(c)	*	*met(c)	*	*met(c)	*	*met(c)	*	*met(c)	*met(c)	*	*met(c)	*met(c)	*
*all\right	*	*all\right	*all\right	*	*all\right	*	*all\right	*	*all\right	*	*all\right	*	*all\right	*	*all\right	*all\right	*	*all\right	*all\right	*
=1	=1	=1	=1	=1	=1	=1	=1	=1	=1	=1	=1	=1	=1	=1	=1	=1	=1	=1	=1	=1
!LO:TX:t=P:problem:partia na wspólnej pięciolinii z Vcell [karta 0003]	!	!LO:TX:t=P:problem:fragment w taktach nr 39-42, niewykreślony fragment cb [dodano po konsultacji z E.Z.] 	!LO:TX:t=P:problem:partia na wspólnej pięciolinii z CB, [karta 0003]	!	!LO:TX:t=P:problem:kolejność znaków F# c# G#	!	!LO:TX:t=P:problem:kolejność znaków f# cc# g#	!	!LO:TX:t=P:problem:kolejność znaków f# cc# g#	!	!	!	!	!	!LO:TX:t=P:problem:klucz F zmieniony na G; znaki zapisane zgodnie z kluczem F	!LO:TX:t=P:problem:kolejność znaków f# cc# g#	!	!	!LO:TX:t=P:problem:kolejność znaków f# cc# g#	!
2r	.	1ryy	2r	.	2r	.	2r	.	2r	.	2r	.	2r@	.	2r@	2r@	.	1r	1r	.
4r	.	.	4r	.	4r	.	4r	.	4r	.	4r	.	4r@	.	4r@	4r@	.	.	.	.
8.r	.	.	8.r	.	8.r	.	8.r	.	8.r	.	8.r	.	8.r@	.	8.r@	8.r@	.	.	.	.
!	!LO:DY:rj	!	!	!LO:DY:rj	!	!	!	!LO:DY:rj	!	!LO:DY:rj	!	!	!	!LO:DY:rj:color=blue	!	!	!LO:DY:rj:color=blue	!	!	!
16A\	ff	.	16A/	ff	16f#\	ff	16cc#\	ff	16ff#\	ff	16AAA/ 16AA	.	16C#\ 16F# 16A	ff	16f#/	16cc#\ 16ff#	ff	.	.	.
=2	=2	=2	=2	=2	=2	=2	=2	=2	=2	=2	=2	=2	=2	=2	=2	=2	=2	=2	=2	=2
*	*	*	*	*	*	*	*	*	*	*	*	*	*	*	*	*	*	*^	*	*
*2\right	*	*	*	*	*2\right	*	*	*	*	*	*	*	*2\right	*	*	*	*	*	*	*	*
*	*	*	*	*	*	*	*	*	*	*	*	*	*ped	*	*	*ped	*	*	*	*	*
*	*	*	*	*	*	*	*2\right	*	*2\right	*	*tremolo	*	*tremolo	*	*	*2\right	*	*2\right	*	*	*
!	!	!	!	!	!	!	!	!	!	!	!	!	!LO:TX:t=P:problem:mixed beam	!	!	!	!	!	!	!LO:TX:a:i:t=Grand jeu.	!
!	!	!	!	!	!	!	!	!	!	!	!	!	!	!	!	!	!	!	!	!	!LO:DY:t=ff.:rj
2A\	>	1ryy	2A/	>	(2f#\	>	(2cc#\	>	(2ff#\	>	32AAA/LLL	.	32F#\LLL 32A 32c#	.	2f#/	2cc#\ 2ff#	.	(>(<(<2AA^^\ 2C# [>2F# 2A	2ryy	(>2f#^^>/ 2a 2cc# 2ff#	ff
.	.	.	.	.	.	.	.	.	.	.	32AA/	.	32C#/	.	.	.	.	.	.	.	.
.	.	.	.	.	.	.	.	.	.	.	32AAA/	.	32F#\ 32A 32c#	.	.	.	.	.	.	.	.
.	.	.	.	.	.	.	.	.	.	.	32AA/	.	32C#/	.	.	.	.	.	.	.	.
.	.	.	.	.	.	.	.	.	.	.	32AAA/	.	32F#\ 32A 32c#	.	.	.	.	.	.	.	.
.	.	.	.	.	.	.	.	.	.	.	32AA/	.	32C#/	.	.	.	.	.	.	.	.
.	.	.	.	.	.	.	.	.	.	.	32AAA/	.	32F#\ 32A 32c#	.	.	.	.	.	.	.	.
.	.	.	.	.	.	.	.	.	.	.	32AA/	.	32C#/	.	.	.	.	.	.	.	.
.	.	.	.	.	.	.	.	.	.	.	32AAA/	.	32F#\ 32A 32c#	.	.	.	.	.	.	.	.
.	.	.	.	.	.	.	.	.	.	.	32AA/	.	32C#/	.	.	.	.	.	.	.	.
.	.	.	.	.	.	.	.	.	.	.	32AAA/	.	32F#\ 32A 32c#	.	.	.	.	.	.	.	.
.	.	.	.	.	.	.	.	.	.	.	32AA/	.	32C#/	.	.	.	.	.	.	.	.
.	.	.	.	.	.	.	.	.	.	.	32AAA/	.	32F#\ 32A 32c#	.	.	.	.	.	.	.	.
.	.	.	.	.	.	.	.	.	.	.	32AA/	.	32C#/	.	.	.	.	.	.	.	.
.	.	.	.	.	.	.	.	.	.	.	32AAA/	.	32F#\ 32A 32c#	.	.	.	.	.	.	.	.
.	.	.	.	.	.	.	.	.	.	.	32AA/JJJ	.	32C#/JJJ	.	.	.	.	.	.	.	.
*	*	*	*	*	*	*	*	*	*	*	*Xtremolo	*	*Xtremolo	*	*	*	*	*	*	*	*
*	*	*	*	*	*	*	*	*	*	*	*	*	*Xped	*	*	*Xped	*	*	*	*	*
4AA\	]	.	4AA/	]	4F#/)	]	8c#/)	]	8f#/)	]	8AAA/	.	8F#\ 8c#	.	8f#/	8f#/	.	8F#/])))	8F#\	8f#/)	.
!	!	!	!	!	!	!	!LO:TX:a:t=col 1m	!	!	!	!	!	!	!	!	!	!	!	!	!	!
.	.	.	.	.	.	.	8r	p	8r	p	8r	.	8r	.	8r	8r	.	8r	8ryy	8r	.
4r@	.	.	8.F#/L	.	8.F#/L	.	8.f#/Lyy	.y	8.f#/L	.	4r	.	4r	.	4r	4r	.	4r	4ryy	4r	.
.	.	.	16G#/Jk	.	16G#/Jk	.	16g#/Jkyy	<	16g#/Jk	<	.	.	.	.	.	.	.	.	.	.	.
*	*	*	*	*	*	*	*	*	*	*	*	*	*	*	*	*	*	*v	*v	*	*
=3	=3	=3	=3	=3	=3	=3	=3	=3	=3	=3	=3	=3	=3	=3	=3	=3	=3	=3	=3	=3
!	!	!	!	!	!	!	!	!	!	!	!	!	!	!	!	!	!	!	!LO:TX:a:t=(8)	!
1r@	.	1ryy	4A/	.	4A/	.	4a/yy	.	4a/	.	1r	.	1r	.	1r	1r	.	1r	1r	p
.	.	.	8.B/L	.	8.B/L	.	8.b\Lyy	.	8.b\L	.	.	.	.	.	.	.	.	.	.	.
.	.	.	16c#/Jk	.	16c#/Jk	.	16cc#\Jkyy	.	16cc#\Jk	.	.	.	.	.	.	.	.	.	.	.
!	!	!	!	!	!	!	!LO:TX:t=P:problem:diminuendolike accent	!	!LO:TX:t=P:problem:diminuendolike accent	!	!	!	!	!	!	!	!	!	!	!
.	.	.	4e/	.	4e\	.	4ee^<\yy	[	4ee^<\	[	.	.	.	.	.	.	.	.	.	.
.	.	.	8.d/L	.	8.d\L	.	8.dd\Lyy	.	8.dd\L	.	.	.	.	.	.	.	.	.	.	.
.	.	.	16c#/Jk	.	16c#\Jk	.	16cc#\Jkyy	.	16cc#\Jk	.	.	.	.	.	.	.	.	.	.	.
=4	=4	=4	=4	=4	=4	=4	=4	=4	=4	=4	=4	=4	=4	=4	=4	=4	=4	=4	=4	=4
*	*	*	*	*	*	*	*	*	*	*	*	*	*ped	*	*	*ped	*	*	*2\right	*
!	!	!	!	!LO:DY:color=blue	!	!LO:DY:rj:color=blue	!	!LO:HP:color=blue	!	!LO:HP:color=blue	!	!	!	!	!	!	!	!	!	!LO:DY:rj:color=blue
!	!	!	!	!LO:S:color=dodgerblue	!	!LO:S:color=dodgerblue	!	!	!	!	!	!	!	!	!	!	!	!	!	!
1r@	.	1ryy	(2c#/	sf >	(2F#/	sf >	2.f#/	sf >	(2cc#\	sf >	1ryy	.	[2D^\	.	2r	2r	.	([2D\ 2c#	(2cc#\	sf >
!	!	!	!	!	!	!LO:DY:rj:color=blue	!	!LO:DY:color=blue	!	!LO:DY:color=blue	!	!	!	!	!	!	!	!	!	!LO:DY:color=blue
.	.	.	4B/)	]	4F#/)	] p	.	] p	4b\)	] p	.	.	4D\]	.	4r	4r	.	4D\]) 4B	4b\)	] p
*	*	*	*	*	*	*	*	*	*	*	*	*	*Xped	*	*	*Xped	*	*	*	*
.	.	.	4r@	.	4r@	.	8.r	f	8.r	f	.	.	4ryy	.	8.r	8.r	.	4r	4r	.
!	!	!	!	!	!	!	!	!	!	!	!	!	!	!	!	!	!LO:DY:rj	!	!	!
.	.	.	.	.	.	.	16d/ 16dd	.	16d/ 16dd	.	.	.	.	.	16d/	16dd\	f	.	.	.
!!LO:LB:g=original
=5	=5	=5	=5	=5	=5	=5	=5	=5	=5	=5	=5	=5	=5	=5	=5	=5	=5	=5	=5	=5
1r	.	1ryy	1r	.	1r	.	4..d/ 4..dd	.	4..d/ 4..dd	.	1r	.	1r	.	4..d/	4..dd\	.	1r	1r	.
.	.	.	.	.	.	.	16d/ 16dd	.	16d/ 16dd	.	.	.	.	.	16d/	16dd\	.	.	.	.
.	.	.	.	.	.	.	4..d/ 4..dd	.	4..d/ 4..dd	.	.	.	.	.	4..d/	4..dd\	.	.	.	.
.	.	.	.	.	.	.	16d/	.	16dd/	.	.	.	.	.	16d/	16dd\	.	.	.	.
*	*	*	*	*	*	*	*	*	*	*	*	*	*ped	*	*	*ped	*	*	*	*
=6	=6	=6	=6	=6	=6	=6	=6	=6	=6	=6	=6	=6	=6	=6	=6	=6	=6	=6	=6	=6
*	*	*	*	*	*	*	*	*	*	*	*	*	*	*	*	*	*	*	*^	*
*	*	*	*2\right	*	*	*	*	*	*	*	*	*	*	*	*	*	*	*	*	*	*
!LO:TX:a:t=CB.	!LO:DY:rj	!	!LO:TX:a:t=Vcell.	!LO:DY:rj	!	!LO:DY:rj	!	!LO:DY:a:rj	!	!LO:DY:rj	!	!	!	!	!	!	!	!	!	!	!LO:DY:rj
(2BB/	sf	1ryy	2D/	sff	1G#X 1d	sff	1G#X 1d	sff	(2dd\	sff >	1BBB 1BB	.	1D 1G#X	sff	1d	(2dd\	sff	1BB 1D 1G#X	(2dd/	1d	sff >
2B\)	.	.	2B\	.	.	.	.	.	2e#X/)	]	.	.	.	.	.	2e#X/)	.	.	2e#X/)	.	]]
*	*	*	*	*	*	*	*	*	*	*	*	*	*	*	*	*	*	*	*v	*v	*
=7	=7	=7	=7	=7	=7	=7	=7	=7	=7	=7	=7	=7	=7	=7	=7	=7	=7	=7	=7	=7
.	.	.	.	.	.	.	.	.	.	.	8qAAA/	.	.	.	.	.	.	.	.	.
*	*	*	*	*	*	*	*	*	*	*	*	*	*	*	*	*	*	*^	*	*
!	!	!	!LO:ART:color=blue	!	!LO:ART:color=blue	!	!	!	!	!	!	!	!	!	!	!	!LO:DY:rj	!LO:ART:color=blue	!	!	!
2A\	.	1ryy	2A^^>/	.	2C#@^^>/	.	4f#/	.	4f#/	.	2AA^/	.	2A^\	.	2c#/	4f#/	f	2A^^>\	2AA\	1f#	.
.	.	.	.	.	.	.	8.f#/L	.	8.a/L	.	.	.	.	.	.	8.f#/L 8.a	.	.	.	.	.
.	.	.	.	.	.	.	16g#/Jk	.	16b/Jk	.	.	.	.	.	.	16a/Jk 16cc#	.	.	.	.	.
!	!	!	!LO:ART:color=blue	!	!	!	!	!	!	!	!	!	!	!	!	!	!	!LO:ART:color=blue	!	!	!
4F#\	.	.	4F#^^>/	.	4C#@/	.	4a/	.	4cc#@\	.	4FF#/	.	4F#^\	.	4c#/	4a/ 4cc#	.	2F#^^>\	2ryy	.	.
8.AA\L	.	.	8.AA/L	.	4c#@\	.	4f#/	.	4cc#\	.	8.AAA/L	.	8.AA/L	.	4c#/	4f#/ 4cc#	.	.	.	.	.
16BB\Jk	.	.	16BB/Jk	.	.	.	.	.	.	.	16BBB/Jk	.	16BB/Jk	.	.	.	.	.	.	.	.
=8	=8	=8	=8	=8	=8	=8	=8	=8	=8	=8	=8	=8	=8	=8	=8	=8	=8	=8	=8	=8	=8
*	*	*	*	*	*	*	*	*	*	*	*	*	*	*	*	*	*	*	*	*^	*
*	*	*	*	*	*	*	*	*	*	*	*tremolo	*	*ped	*	*	*ped	*	*	*	*	*	*
!	!	!	!	!	!	!	!	!	!	!	!	!	!	!	!	!	!	!	!	!LO:ART:color=blue	!	!LO:DY:rj
!	!	!	!	!	!	!	!	!LO:DY:rj	!	!LO:DY:rj	!	!	!	!LO:DY:b=2:rj	!	!	!LO:DY:rj	!LO:S:color=blue	!	!LO:S:color=blue	!	!LO:HP:t=dimin
1C#	>]	1ryy	1C#	>]	(2c#/	>	(2a/	sff >	1e#X 1cc#	sff > ]]	32CC#/LLL	>	8C#/	ff	1c# 1e#X	2a/ [2cc#	sff >	(<2c#/	1C#	(2a^^/	1e#X	sff >
.	.	.	.	.	.	.	.	.	.	.	32C#/	.	.	.	.	.	.	.	.	.	.	.
.	.	.	.	.	.	.	.	.	.	.	32CC#/	.	.	.	.	.	.	.	.	.	.	.
.	.	.	.	.	.	.	.	.	.	.	32C#/	.	.	.	.	.	.	.	.	.	.	.
.	.	.	.	.	.	.	.	.	.	.	32CC#/	.	8r	.	.	.	.	.	.	.	.	.
.	.	.	.	.	.	.	.	.	.	.	32C#/	.	.	.	.	.	.	.	.	.	.	.
.	.	.	.	.	.	.	.	.	.	.	32CC#/	.	.	.	.	.	.	.	.	.	.	.
.	.	.	.	.	.	.	.	.	.	.	32C#/	.	.	.	.	.	.	.	.	.	.	.
.	.	.	.	.	.	.	.	.	.	.	32CC#/	.	4r	.	.	.	.	.	.	.	.	.
.	.	.	.	.	.	.	.	.	.	.	32C#/	.	.	.	.	.	.	.	.	.	.	.
.	.	.	.	.	.	.	.	.	.	.	32CC#/	.	.	.	.	.	.	.	.	.	.	.
.	.	.	.	.	.	.	.	.	.	.	32C#/	.	.	.	.	.	.	.	.	.	.	.
.	.	.	.	.	.	.	.	.	.	.	32CC#/	.	.	.	.	.	.	.	.	.	.	.
.	.	.	.	.	.	.	.	.	.	.	32C#/	.	.	.	.	.	.	.	.	.	.	.
.	.	.	.	.	.	.	.	.	.	.	32CC#/	.	.	.	.	.	.	.	.	.	.	.
.	.	.	.	.	.	.	.	.	.	.	32C#/JJJ	.	.	.	.	.	.	.	.	.	.	.
*	*	*	*	*	*	*	*	*	*	*	*rep	*	*	*	*	*	*	*	*	*	*	*
!	!	!	!	!	!	!	!LO:TX:b:t=Z daru p. Władysława Millera\n[.]. 21 września 1896.\n[....]	!	!	!	!	!	!	!	!	!LO:TX:t=P:problem:brak początku ligatury	!	!	!	!	!	!
.	.	.	.	.	2B/)	]]	2g#/)	]]	.	.	32CC#/LLL	.	2r	.	.	2g#/ 2cc#_	]]	2B/)	.	2g#/)	.	.
.	.	.	.	.	.	.	.	.	.	.	32C#/	.	.	.	.	.	.	.	.	.	.	.
.	.	.	.	.	.	.	.	.	.	.	32CC#/	.	.	.	.	.	.	.	.	.	.	.
.	.	.	.	.	.	.	.	.	.	.	32C#/	.	.	.	.	.	.	.	.	.	.	.
.	.	.	.	.	.	.	.	.	.	.	32CC#/	.	.	.	.	.	.	.	.	.	.	.
.	.	.	.	.	.	.	.	.	.	.	32C#/	.	.	.	.	.	.	.	.	.	.	.
.	.	.	.	.	.	.	.	.	.	.	32CC#/	.	.	.	.	.	.	.	.	.	.	.
.	.	.	.	.	.	.	.	.	.	.	32C#/	.	.	.	.	.	.	.	.	.	.	.
.	.	.	.	.	.	.	.	.	.	.	32CC#/	.	.	.	.	.	.	.	.	.	.	.
.	.	.	.	.	.	.	.	.	.	.	32C#/	.	.	.	.	.	.	.	.	.	.	.
.	.	.	.	.	.	.	.	.	.	.	32CC#/	.	.	.	.	.	.	.	.	.	.	.
*	*	*	*	*	*	*	*	*	*	*	*	*	*Xped	*	*	*Xped	*	*	*	*	*	*
.	.	.	.	.	.	.	.	.	.	.	32C#/	.	.	.	.	.	.	.	.	.	.	.
.	.	.	.	.	.	.	.	.	.	.	32CC#/	.	.	.	.	.	.	.	.	.	.	.
.	.	.	.	.	.	.	.	.	.	.	32C#/	.	.	.	.	.	.	.	.	.	.	.
.	.	.	.	.	.	.	.	.	.	.	32CC#/	.	.	.	.	.	.	.	.	.	.	.
.	.	.	.	.	.	.	.	.	.	.	32C#/JJJ	]]	.	.	.	.	.	.	.	.	.	.
*	*	*	*	*	*	*	*	*	*	*	*Xrep	*	*	*	*	*	*	*	*	*	*	*
*	*	*	*	*	*	*	*	*	*	*	*Xtremolo	*	*	*	*	*	*	*	*	*	*	*
*	*	*	*	*	*	*	*	*	*	*	*	*	*	*	*	*	*	*v	*v	*	*	*
*	*	*	*	*	*	*	*	*	*	*	*	*	*	*	*	*	*	*	*v	*v	*
!!LO:PB:g=original
=9||	=9||	=9||	=9||	=9||	=9||	=9||	=9||	=9||	=9||	=9||	=9||	=9||	=9||	=9||	=9||	=9||	=9||	=9||	=9||	=9||
*M6/8	*	*M6/8	*M6/8	*	*M6/8	*	*M6/8	*	*M6/8	*	*M6/8	*	*M6/8	*	*M6/8	*M6/8	*	*M6/8	*M6/8	*
*	*	*	*	*	*	*	*	*	*	*	*	*	*	*	*	*	*	*^	*^	*
*	*	*	*	*	*	*	*	*	*	*	*	*	*	*	*	*	*	*	*^	*	*^	*
*	*	*	*	*	*	*	*	*	*	*	*	*	*ped	*	*	*ped	*	*	*	*	*	*	*	*
!LO:TX:b:t=pizzi	!	!	!	!	!	!	!	!	!	!	!	!	!LO:TX:a:t=(x)	!	!	!	!	!	!	!	!	!	!	!LO:DY:rj:t=pp.
!LO:TX:b:t=4:color=grey	!	!	!	!	!	!	!	!	!	!	!	!	!	!	!	!	!	!	!	!	!	!	!	!
4AA/	.	2.ryy	4c#\	.	8A/L	.	8a/	.	4en\ 4cc#	.	4AAA/ 4AA	.	(16C#\LL	.	8c#/ 8en	8a\ 8cc#]	.	4.A/	[2.E\	2.rAAA	8a/	[>2.e/	4.e\	pp
.	.	.	.	.	.	.	.	.	.	.	.	.	16E\	.	.	.	.	.	.	.	.	.	.	.
!	!	!	!	!	!LO:TX:b:t=pizzi.	!	!LO:TX:b:t=pizzi	!	!	!	!	!	!	!	!	!	!	!	!	!	!	!	!	!
.	.	.	.	.	8E/	.	8c#/L	.	.	.	.	.	16A\	.	8r	8r	.	.	.	.	8r	.	.	.
.	.	.	.	.	.	.	.	.	.	.	.	.	16c#\	.	.	.	.	.	.	.	.	.	.	.
8r	.	.	8c#\	.	8A/J	.	8c#/J 8e	.	8cc#\	.	8r	.	16e\	.	8r	8r	.	.	.	.	8r	.	.	.
*	*	*	*	*	*	*	*	*	*	*	*	*	*Xped	*	*	*	*	*	*	*	*	*	*	*
.	.	.	.	.	.	.	.	.	.	.	.	.	16a\JJ	.	.	.	.	.	.	.	.	.	.	.
.	.	.	8qqc#/	.	.	.	.	.	4qcc#/	.	.	.	.	.	.	.	.	.	.	.	.	.	.	.
*	*	*	*	*	*	*	*	*	*	*	*	*	*	*	*	*Xped	*	*	*	*	*	*	*	*
4r	.	.	8B\L	.	8B/L	.	8c#/L	.	8b\L	.	4r	.	16g#\LL	.	4r	4r	.	4.B/	.	.	4r	.	4.d\	.
.	.	.	.	.	.	.	.	.	.	.	.	.	16e\	.	.	.	.	.	.	.	.	.	.	.
.	.	.	8A\	.	8G#/	.	8e/	.	8a\	.	.	.	16d\	.	.	.	.	.	.	.	.	.	.	.
.	.	.	.	.	.	.	.	.	.	.	.	.	16B\	.	.	.	.	.	.	.	.	.	.	.
8r	.	.	8B\J	.	8E/J	.	8d/J	.	8b\J	.	8r	.	16G#\	.	8r	8r	.	.	.	.	8r	.	.	.
.	.	.	.	.	.	.	.	.	.	.	.	.	16E\JJ)	.	.	.	.	.	.	.	.	.	.	.
*	*	*	*	*	*	*	*	*	*	*	*	*	*	*	*	*	*	*	*v	*v	*	*	*	*
*	*	*	*	*	*	*	*	*	*	*	*	*	*	*	*	*	*	*	*	*v	*v	*v	*
=10	=10	=10	=10	=10	=10	=10	=10	=10	=10	=10	=10	=10	=10	=10	=10	=10	=10	=10	=10	=10	=10
*rep	*	*	*	*	*	*	*	*	*	*	*rep	*	*ped	*	*	*ped	*	*	*	*	*
4AA/	.	2.ryy	[4.c#\	.	8r	.	8r	.	[<4.cc#\	.	4AAA/ 4AA	.	16r	.	2.r	2.r	.	2.E/] 2.A	2.r	2.c#/ 2.e]	.
.	.	.	.	.	.	.	.	.	.	.	.	.	(16E\LL	.	.	.	.	.	.	.	.
.	.	.	.	.	8E/L 8A	.	8c#/L	.	.	.	.	.	16A\	.	.	.	.	.	.	.	.
.	.	.	.	.	.	.	.	.	.	.	.	.	16c#\	.	.	.	.	.	.	.	.
8r	.	.	.	.	8A/J	.	8c#/J 8e	.	.	.	8r	.	16e\	.	.	.	.	.	.	.	.
.	.	.	.	.	.	.	.	.	.	.	.	.	16f#\JJ	.	.	.	.	.	.	.	.
*	*	*	*	*	*	*	*	*	*	*	*	*	*Xped	*	*	*Xped	*	*	*	*	*
!	!	!	!	!	!LO:TX:t=P:problem:mixed beam	!	!	!	!	!	!	!	!	!	!	!	!	!	!	!	!
4r	.	.	4c#\]	.	8a^\L	.	8c#/L 8e	.	4cc#\]	.	4r	.	16e\LL	.	.	.	.	.	.	.	.
.	.	.	.	.	.	.	.	.	.	.	.	.	16c#\	.	.	.	.	.	.	.	.
.	.	.	.	.	8A/	.	8c#/ 8e	.	.	.	.	.	16A\	.	.	.	.	.	.	.	.
.	.	.	.	.	.	.	.	.	.	.	.	.	16E\	.	.	.	.	.	.	.	.
8r	.	.	8e\	.	8E/J 8A	.	8c#/J 8e	.	8ee\	.	8r	.	16A\	.	.	.	.	.	.	.	.
.	.	.	.	.	.	.	.	.	.	.	.	.	16c#\JJ	.	.	.	.	.	.	.	.
*Xrep	*	*	*	*	*	*	*	*	*	*	*Xrep	*	*	*	*	*	*	*	*	*	*
=11	=11	=11	=11	=11	=11	=11	=11	=11	=11	=11	=11	=11	=11	=11	=11	=11	=11	=11	=11	=11	=11
*	*	*	*	*	*	*	*	*	*	*	*	*	*^	*	*	*	*	*	*	*	*
*rep	*	*	*	*	*	*	*	*	*	*	*rep	*	*	*ped	*	*	*ped	*	*	*	*	*
4AA/	.	2.ryy	4.f#^\	.	8r	.	8r	.	4.ff#^\	.	4AAA/ 4AA	.	4.A/	16A\LL	.	2.r	2.r	.	4.F#/	2.AA\	4.B#X^>/ 4.d#X	.
.	.	.	.	.	.	.	.	.	.	.	.	.	.	16B#X\	.	.	.	.	.	.	.	.
.	.	.	.	.	8B#X/L	.	8d#X/L	.	.	.	.	.	.	16d#X\	.	.	.	.	.	.	.	.
.	.	.	.	.	.	.	.	.	.	.	.	.	.	16f#\	.	.	.	.	.	.	.	.
8r	.	.	.	.	8A/J	.	8f#/J	.	.	.	8r	.	.	16d#\	.	.	.	.	.	.	.	.
*	*	*	*	*	*	*	*	*	*	*	*	*	*	*Xped	*	*	*	*	*	*	*	*
.	.	.	.	.	.	.	.	.	.	.	.	.	.	16B#'\JJ	.	.	.	.	.	.	.	.
*	*	*	*	*	*	*	*	*	*	*	*	*	*	*	*	*	*Xped	*	*	*	*	*
4r	.	.	4e\	.	8r	.	8r	.	4ee\	.	4r	.	16c#\LL	4ryy	.	.	.	.	4.A/	.	4.c#/ 4.e	.
.	.	.	.	.	.	.	.	.	.	.	.	.	16e\	.	.	.	.	.	.	.	.	.
.	.	.	.	.	8c#/L	.	8e/L	.	.	.	.	.	16c#\	.	.	.	.	.	.	.	.	.
.	.	.	.	.	.	.	.	.	.	.	.	.	16A\	.	.	.	.	.	.	.	.	.
8r	.	.	8A\	.	8A/J	.	8c#/J 8e	.	8a/	.	8r	.	16E\	8ryy	.	.	.	.	.	.	.	.
.	.	.	.	.	.	.	.	.	.	.	.	.	16C#\JJ)	.	.	.	.	.	.	.	.	.
*Xrep	*	*	*	*	*	*	*	*	*	*	*Xrep	*	*	*	*	*	*	*	*	*	*	*
*	*	*	*	*	*	*	*	*	*	*	*	*	*v	*v	*	*	*	*	*	*	*	*
=12	=12	=12	=12	=12	=12	=12	=12	=12	=12	=12	=12	=12	=12	=12	=12	=12	=12	=12	=12	=12	=12
*rep	*	*	*	*	*	*	*	*	*	*	*rep	*	*ped	*	*	*ped	*	*	*	*	*
4AA/	.	2.ryy	2.c#\	.	8r	.	8r	.	2.cc#\	.	4AAA/ 4AA	.	16r	.	2.r	2.r	.	2.A/	[2.AA\	2.c#/ 2.e	.
.	.	.	.	.	.	.	.	.	.	.	.	.	(16E\LL	.	.	.	.	.	.	.	.
.	.	.	.	.	8E/L 8A	.	8c#/L	.	.	.	.	.	16A\	.	.	.	.	.	.	.	.
.	.	.	.	.	.	.	.	.	.	.	.	.	16c#\	.	.	.	.	.	.	.	.
8r	.	.	.	.	8A/J	.	8c#/J 8e	.	.	.	8r	.	16e\	.	.	.	.	.	.	.	.
.	.	.	.	.	.	.	.	.	.	.	.	.	16c#\JJ	.	.	.	.	.	.	.	.
*	*	*	*	*	*	*	*	*	*	*	*	*	*Xped	*	*	*Xped	*	*	*	*	*
4r	.	.	.	.	8c#/L	.	8e/L 8a	.	.	.	4r	.	16A\LL	.	.	.	.	.	.	.	.
.	.	.	.	.	.	.	.	.	.	.	.	.	16c#\	.	.	.	.	.	.	.	.
.	.	.	.	.	8A/	.	8c#/ 8e	.	.	.	.	.	16A\	.	.	.	.	.	.	.	.
.	.	.	.	.	.	.	.	.	.	.	.	.	16E\	.	.	.	.	.	.	.	.
8r	.	.	.	.	8E/J 8A	.	8c#/J	.	.	.	8r	.	16C#\	.	.	.	.	.	.	.	.
.	.	.	.	.	.	.	.	.	.	.	.	.	16E\JJ)	.	.	.	.	.	.	.	.
*Xrep	*	*	*	*	*	*	*	*	*	*	*Xrep	*	*	*	*	*	*	*	*	*	*
*	*	*	*	*	*	*	*	*	*	*	*	*	*	*	*	*	*	*v	*v	*	*
=13	=13	=13	=13	=13	=13	=13	=13	=13	=13	=13	=13	=13	=13	=13	=13	=13	=13	=13	=13	=13
*rep	*	*	*	*	*	*	*	*	*	*	*rep	*	*ped	*	*	*ped	*	*	*	*
!LO:TX:b:t=5:color=grey	!	!	!	!	!	!	!	!	!	!	!	!	!	!	!	!	!	!	!	!
4AA/	.	2.ryy	4B\	<	8r	.	8r	.	4b\	<	4AAA/ 4AA	.	16r	.	2.r	2.r	.	2.AA/]	2.B/ 2.d 2.gn	.
.	.	.	.	.	.	.	.	.	.	.	.	.	(16D\LL	.	.	.	.	.	.	.
.	.	.	.	.	8D/L	.	8Gn/L 8d	.	.	.	.	.	16Gn\	.	.	.	.	.	.	.
.	.	.	.	.	.	.	.	.	.	.	.	.	16B\	.	.	.	.	.	.	.
8r	.	.	[8B\	.	8Gn/J 8d	.	8gn/J	.	[8b\	.	8r	.	16d\	.	.	.	.	.	.	.
.	.	.	.	.	.	.	.	.	.	.	.	.	16gn\JJ	.	.	.	.	.	.	.
*	*	*	*	*	*	*	*	*	*	*	*	*	*Xped	*	*	*Xped	*	*	*	*
4r	.	.	8B\L]	.	8G/L 8gny	.	8d/L 8b	.	8b\L]	.	4r	.	16d\LL	.	.	.	.	.	.	.
.	.	.	.	.	.	.	.	.	.	.	.	.	16B\	.	.	.	.	.	.	.
.	.	.	8c#\	.	8B/	.	8g/	.	8cc#\	.	.	.	16G\	.	.	.	.	.	.	.
.	.	.	.	.	.	.	.	.	.	.	.	.	16A\	.	.	.	.	.	.	.
8r	.	.	8d\J	[[	8B/J	.	8G/J 8d	.	8dd\J	[[	8r	.	16B\	.	.	.	.	.	.	.
.	.	.	.	.	.	.	.	.	.	.	.	.	16G\JJ)	.	.	.	.	.	.	.
*Xrep	*	*	*	*	*	*	*	*	*	*	*Xrep	*	*	*	*	*	*	*	*	*
!!LO:PB:g=original
=14	=14	=14	=14	=14	=14	=14	=14	=14	=14	=14	=14	=14	=14	=14	=14	=14	=14	=14	=14	=14
*	*	*	*	*	*	*	*	*	*	*	*	*	*^	*	*	*	*	*	*	*
*rep	*	*	*	*	*	*	*	*	*	*	*rep	*	*	*ped	*	*	*ped	*	*	*	*
!	!	!	!	!	!	!	!	!	!	!	!	!	!	!	!	!	!LO:TX:t=P:problem:ped.color=blue	!	!	!	!
4AA/	.	2.ryy	(>[4.e\	.	8r	.	8r	.	([4.ee\	>	4AAA/ 4AA	.	(4.Gn/	16Gn\LL	.	2.r@	2.r@	.	2.AA/	2.A/ 2.c# 2.gn	.
.	.	.	.	.	.	.	.	.	.	.	.	.	.	16A\	.	.	.	.	.	.	.
.	.	.	.	.	8E/L 8A	.	8c#/L	.	.	.	.	.	.	16c#\	.	.	.	.	.	.	.
.	.	.	.	.	.	.	.	.	.	.	.	.	.	16e\	.	.	.	.	.	.	.
8r	.	.	.	.	8A/J	.	8c#/J 8e	.	.	.	8r	.	.	16a\	.	.	.	.	.	.	.
!	!	!	!	!	!	!	!	!	!	!	!	!	!	!	!	!	!LO:TX:t=P:problem:ped.color=blue	!	!	!	!
*	*	*	*	*	*	*	*	*	*	*	*	*	*	*Xped	*	*	*Xped	*	*	*	*
.	.	.	.	.	.	.	.	.	.	.	.	.	.	16gn\JJ	.	.	.	.	.	.	.
*	*	*	*	*	*	*	*tremolo	*	*	*	*	*	*	*	*	*	*	*	*	*	*
!	!	!	!	!	!LO:TX:t=P:problem:mixed beam	!	!	!	!	!	!	!	!	!	!	!	!	!	!	!	!
4r	.	.	4e\]	.	8a\L	.	8c#/L 8e	.	4ee\]	]	4r	.	16e\LL	4ryy	.	.	.	.	.	.	.
.	.	.	.	.	.	.	.	.	.	.	.	.	16c#\	.	.	.	.	.	.	.	.
.	.	.	.	.	8A/	.	8c#/ 8e	.	.	.	.	.	16A\	.	.	.	.	.	.	.	.
.	.	.	.	.	.	.	.	.	.	.	.	.	16G\	.	.	.	.	.	.	.	.
8r	.	.	8c#\	.	8E/J 8A	.	8c#/J 8e	.	8cc#\	.	8r	.	16E\	8ryy	.	.	.	.	.	.	.
.	.	.	.	.	.	.	.	.	.	.	.	.	16G\JJ	.	.	.	.	.	.	.	.
*Xrep	*	*	*	*	*	*	*Xtremolo	*	*	*	*Xrep	*	*	*	*	*	*	*	*	*	*
=15	=15	=15	=15	=15	=15	=15	=15	=15	=15	=15	=15	=15	=15	=15	=15	=15	=15	=15	=15	=15	=15
*	*	*	*	*	*	*	*	*	*	*	*	*	*	*	*	*	*	*	*^	*	*
*rep	*	*	*	*	*	*	*	*	*	*	*rep	*	*	*ped	*	*	*ped	*	*	*	*	*
!	!	!	!	!	!	!	!	!	!	!	!	!	!LO:N:vis=4	!	!	!	!LO:TX:t=P:problem:ped.color=blue	!	!	!	!	!
4AA/	.	2.ryy	8A\)	.	8r	.	8r	.	8a/)	.	4AAA/ 4AA	.	4.F#/	16F#\LL	.	2.r@	2.r@	.	4.A/	2.AA\	4.f#/	.
.	.	.	.	.	.	.	.	.	.	.	.	.	.	16A\	.	.	.	.	.	.	.	.
!	!	!	!	!	!LO:TX:t=P:problem:mixed beam	!	!	!	!	!	!	!	!	!	!	!	!	!	!	!	!	!
.	.	.	8r	.	8F#/L	.	8A/L 8f#	.	8r	.	.	.	.	16d\	.	.	.	.	.	.	.	.
.	.	.	.	.	.	.	.	.	.	.	.	.	.	16f#\	.	.	.	.	.	.	.	.
!	!	!	!	!LO:DY:t=pp.	!	!	!	!	!	!LO:DY:t=pp.	!	!	!	!	!	!	!	!	!	!	!	!
8r	.	.	(8A\	pp	8d\J	.	8A/J 8f#	.	(8a/	pp	8r	.	.	16d\	.	.	.	.	.	.	.	.
.	.	.	.	.	.	.	.	.	.	.	.	.	.	16A\JJ	.	.	.	.	.	.	.	.
!	!	!	!	!	!	!	!	!	!	!	!	!	!	!	!	!	!LO:TX:t=P:problem:ped.color=blue	!	!	!	!	!
*	*	*	*	*	*	*	*	*	*	*	*	*	*	*Xped	*	*	*Xped	*	*	*	*	*
!	!	!	!	!	!	!	!	!	!	!	!	!	!LO:N:vis=4	!	!	!	!	!	!	!	!	!
4r	.	.	[4d\)	.	8B/L	.	8G#/L 8e#X	.	[4dd\)	.	4r	.	4.G#X/	16G#X\LL	.	.	.	.	4.G#/	.	4.B/ 4.e#X	.
.	.	.	.	.	.	.	.	.	.	.	.	.	.	16B\	.	.	.	.	.	.	.	.
.	.	.	.	.	8B/	.	8dn/	.	.	.	.	.	.	16d\	.	.	.	.	.	.	.	.
.	.	.	.	.	.	.	.	.	.	.	.	.	.	16e#X\	.	.	.	.	.	.	.	.
8r	.	.	16d\LL]	.	8B/J	.	8g#/J	.	16dd\LL]	.	8r	.	.	16d\	.	.	.	.	.	.	.	.
.	.	.	16c#|>\JJ	.	.	.	.	.	16cc#|>\JJ	.	.	.	.	16B\JJ	.	.	.	.	.	.	.	.
*Xrep	*	*	*	*	*	*	*	*	*	*	*Xrep	*	*	*	*	*	*	*	*	*	*	*
*	*	*	*	*	*	*	*	*	*	*	*	*	*v	*v	*	*	*	*	*v	*v	*	*
=16	=16	=16	=16	=16	=16	=16	=16	=16	=16	=16	=16	=16	=16	=16	=16	=16	=16	=16	=16	=16
*rep	*	*	*	*	*	*	*	*	*	*	*	*	*ped	*	*	*ped	*	*	*	*
!	!	!	!	!	!	!	!	!	!	!LO:DY:t=ppp.	!	!	!	!	!	!	!	!	!	!
4AA/	.	2.ryy	[2.c#\	ppp	8r	.	8r	.	[2.cc#\	ppp	4AAA/ 4AA	.	16A\LL	.	4r	4r	.	2.ryy	[>2.c#/ [>2.f#	.
.	.	.	.	.	.	.	.	.	.	.	.	.	16c#\	.	.	.	.	.	.	.
!	!	!	!	!	!LO:TX:t=P:problem:mixed beam	!	!	!	!	!	!	!	!	!	!	!	!	!	!	!
.	.	.	.	.	8A/L	.	8f#/L	.	.	.	.	.	16f#\	.	.	.	.	.	.	.
.	.	.	.	.	.	.	.	.	.	.	.	.	16c#\	.	.	.	.	.	.	.
!	!	!	!	!	!	!	!	!	!	!	!	!	!LO:TX:b:t=U.C:color=blue	!	!	!LO:TX:b:B:t=U.C.	!	!	!	!
8r	.	.	.	.	8f#\J	.	8cc#/J	.	.	.	8r	.	16A\	.	8r	8r	.	.	.	.
.	.	.	.	.	.	.	.	.	.	.	.	.	16F#\JJ	.	.	.	.	.	.	.
!	!	!	!	!	!	!	!	!	!	!	!	!	!LO:TX:t=P:problem:mixed beam	!	!	!	!	!	!	!
4r	.	.	.	.	8c#/L	.	8a/L	.	.	.	4r	.	16C#\LL	.	8r	8r	.	.	.	.
.	.	.	.	.	.	.	.	.	.	.	.	.	16F#\	.	.	.	.	.	.	.
.	.	.	.	.	8A/	.	8f#/	.	.	.	.	.	16A\	.	8.r	8.r	ppp	.	.	.
.	.	.	.	.	.	.	.	.	.	.	.	.	16F#\	.	.	.	.	.	.	.
8r	.	.	.	.	8A/J	.	8c#/J	.	.	.	8ryy	.	16C#</	.	.	.	.	.	.	.
!	!	!	!	!	!	!	!	!	!	!	!	!	!	!	!	!LO:TX:b:i:t=legieriſſimo:color=blue	!	!	!	!
.	.	.	.	.	.	.	.	.	.	.	.	.	16BB</JJ)	.	32cc#/LLL	(32ccc#\LLL	.	.	.	.
.	.	.	.	.	.	.	.	.	.	.	.	.	.	.	32a/JJJ	32aa\JJJ	.	.	.	.
*Xrep	*	*	*	*	*	*	*	*	*	*	*	*	*	*	*	*	*	*	*	*
!!LO:TX:t=P:problem:barlines.color=green
=17	=17	=17	=17	=17	=17	=17	=17	=17	=17	=17	=17	=17	=17	=17	=17	=17	=17	=17	=17	=17
!LO:TX:b:t=6:color=grey	!	!	!	!	!	!	!	!	!	!	!	!	!	!	!	!	!	!	!	!
4AA/	.	2.ryy	2.c#\_	.	8r	.	8r	.	2.cc#\_	.	8AA/	.	16r	.	8f#/	8ff#\)	.	(4.AA/	8c#/] 8f#]	.
.	.	.	.	.	.	.	.	.	.	.	.	.	16C#\LL	.	.	.	.	.	.	.
!	!	!	!	!	!	!	!	!	!	!	!	!	!	!	!	!	!	!	!	!LO:DY:t=ppp.
.	.	.	.	.	8c#/L	.	8f#/L	.	.	.	8r	.	16F#\	.	8r	8r	.	.	8r	ppp
.	.	.	.	.	.	.	.	.	.	.	.	.	16c#\	.	.	.	.	.	.	.
*	*	*	*	*	*	*	*	*	*	*	*	*	*	*	*	*Xped	*	*	*	*
8r	.	.	.	.	8F#/J	.	8c#/J	.	.	.	(8AA/	.	16F#\	.	(8f#/	8cc#|>\ 8ff#	.	.	8f#\ 8ff#	.
*	*	*	*	*	*	*	*	*	*	*	*	*	*Xped	*	*	*	*	*	*	*
.	.	.	.	.	.	.	.	.	.	.	.	.	16C#\JJ	.	.	.	.	.	.	.
*	*	*	*	*	*	*	*	*	*	*	*	*	*ped	*	*	*ped	*	*	*	*
4BB/	.	.	.	.	8r	.	8r	.	.	.	8BB/)	.	16r	.	4e#X/)	(4cc#\ 4ee#X	.	4.BB/	(4g#\ 4ee#X	.
.	.	.	.	.	.	.	.	.	.	.	.	.	16C#\LL	.	.	.	.	.	.	.
.	.	.	.	.	8c#/L	.	8g#/L	.	.	.	8r	.	16G#X\	.	.	.	.	.	.	.
.	.	.	.	.	.	.	.	.	.	.	.	.	16c#\	.	.	.	.	.	.	.
*	*	*	*	*	*	*	*	*	*	*	*	*	*Xped	*	*	*Xped	*	*	*	*
8r	.	.	.	.	8G#/J	.	8e#X/J	.	.	.	8BB/	.	16E#X\	.	8e#/ 8g#	8cc#\) 8gg#	.	.	8cc#\ 8gg#	.
.	.	.	.	.	.	.	.	.	.	.	.	.	16C#\JJ	.	.	.	.	.	.	.
=18	=18	=18	=18	=18	=18	=18	=18	=18	=18	=18	=18	=18	=18	=18	=18	=18	=18	=18	=18	=18
*	*	*	*	*	*	*	*	*	*	*	*	*	*	*	*	*	*	*	*^	*
*	*	*	*	*	*	*	*	*	*	*	*	*	*ped	*	*	*ped	*	*	*	*	*
!	!	!	!	!	!	!	!	!	!	!	!	!	!LO:TX:t=P:problem:ped.color=blue	!	!	!	!	!LO:N:vis=2	!	!	!
4AA/	.	2.ryy	4.c#\]	.	8r	.	8r	.	4.cc#\_	.	[4.AA/	.	16r	.	[4.f#/ [4.a	[>4.cc#\ [>4.ff#	.	2.AA/)	(>[<4.f#\) [>4.cc# 4.ff#	4.ryy	.
.	.	.	.	.	.	.	.	.	.	.	.	.	16C#\LL	.	.	.	.	.	.	.	.
!	!	!	!	!	!LO:TX:t=P:problem:mixed beam	!	!	!	!	!	!	!	!	!	!	!	!	!	!	!	!
.	.	.	.	.	8A/L	.	8f#/L	.	.	.	.	.	16F#\	.	.	.	.	.	.	.	.
.	.	.	.	.	.	.	.	.	.	.	.	.	16c#\	.	.	.	.	.	.	.	.
8r	.	.	.	.	8f#\J	.	8cc#/J	.	.	.	.	.	16A\	.	.	.	.	.	.	.	.
.	.	.	.	.	.	.	.	.	.	.	.	.	16F#\JJ	.	.	.	.	.	.	.	.
4r	.	.	4c#\	.	8c#/L	.	8a/L	.	4cc#\]	.	4AA/]	.	16C#\LL	.	4f#/] 4a]	4cc#\] 4ff#]	.	.	4cc#/])	4f#\]	.
.	.	.	.	.	.	.	.	.	.	.	.	.	16F#\	.	.	.	.	.	.	.	.
.	.	.	.	.	8A/	.	8f#/	.	.	.	.	.	16A\	.	.	.	.	.	.	.	.
.	.	.	.	.	.	.	.	.	.	.	.	.	16F#\	.	.	.	.	.	.	.	.
!	!	!	!	!	!	!	!	!	!	!	!	!	!	!	!LO:N:vis=8	!	!	!	!	!	!
8r	.	.	16r	.	8c#/J	.	8c#/J	.	16r	.	8r	.	16C#\	.	16r	16r	.	.	8r	8ryy	.
.	.	.	(32c#\LLL	.	.	.	.	.	(32cc#\LLL	.	.	.	16BB\JJ	.	32cc#\LLL	(>32ccc#\LLL	.	.	.	.	.
.	.	.	32A\JJJ)	.	.	.	.	.	32a\JJJ)	.	.	.	.	.	32a\JJJ	32aa\JJJ)	.	.	.	.	.
!!LO:PB:g=original
=19	=19	=19	=19	=19	=19	=19	=19	=19	=19	=19	=19	=19	=19	=19	=19	=19	=19	=19	=19	=19	=19
4AA/	.	2.ryy	4F#\	<	8r	.	8r	.	4f#/	.	8AAA/ 8AA	.	16r	.	8f#/	8ff#\	.	4.AA\ 4.A	4r	4ryy	.
.	.	.	.	.	.	.	.	.	.	.	.	.	16C#\LL	.	.	.	.	.	.	.	.
.	.	.	.	.	8A/L	.	8f#/L	.	.	.	8r	.	16F#\	.	8r	8r	.	.	.	.	.
.	.	.	.	.	.	.	.	.	.	.	.	.	16c#\	.	.	.	.	.	.	.	.
8r	.	.	8A\	[	8F#/J	.	8a/J	.	8f#|</	.	8r	.	16F#\	.	8f#|</	8cc#|>\ 8ff#	.	.	8r	8ryy	.
.	.	.	.	.	.	.	.	.	.	.	.	.	16C#\JJ	.	.	.	.	.	.	.	.
*	*	*	*	*	*	*	*	*	*	*	*	*	*ped	*	*	*ped	*	*	*	*	*
!	!LO:DY:rj	!	!	!	!	!	!	!	!	!	!	!	!	!	!	!	!	!	!	!	!LO:DY:rj
4D\	sf	.	4d\	sf	8d/L	.	8d/L	.	(4f#/	.	4.DD^/ 4.AA	.	16r	.	4f#^/	4dd^\ 4ff#	.	4.D\ 4.A	(4dd/	4.f#^\	p
.	.	.	.	.	.	.	.	.	.	.	.	.	16D\LL	.	.	.	.	.	.	.	.
.	.	.	.	.	8A/	.	8f#/	.	.	.	.	.	16F#\	.	.	.	.	.	.	.	.
.	.	.	.	.	.	.	.	.	.	.	.	.	16A\	.	.	.	.	.	.	.	.
8ryy	.	.	8cn\	.	8f#/J	.	8d/J	.	8a/)	.	.	.	16cn\	.	8f#/ 8a	8ccn\ 8aa	.	.	8ccn/)	.	.
!	!	!	!	!	!	!	!	!	!	!	!	!	!	!	!	!LO:TX:t=P:problem:ped.color=blue	!	!	!	!	!
*	*	*	*	*	*	*	*	*	*	*	*	*	*Xped	*	*	*Xped	*	*	*	*	*
.	.	.	.	.	.	.	.	.	.	.	.	.	16D\JJ	.	.	.	.	.	.	.	.
=20	=20	=20	=20	=20	=20	=20	=20	=20	=20	=20	=20	=20	=20	=20	=20	=20	=20	=20	=20	=20	=20
!	!	!	!LO:TX:t=P:problem:diminuendolike accent	!	!	!	!	!	!	!	!	!	!	!	!	!	!	!	!	!	!
4Gn\	.	2.ryy	4.cn^<\	.	8r	.	8r	.	[4.d/	.	4GGn|</	.	16r	.	[4.d/	(4.ccn\ 4.dd	.	2.GGn\ 2.Gn	(4.ccn/	4.gn\	.
.	.	.	.	.	.	.	.	.	.	.	.	.	16D\LL	.	.	.	.	.	.	.	.
.	.	.	.	.	8D/L	.	8gn/L	.	.	.	.	.	16Gn\	.	.	.	.	.	.	.	.
.	.	.	.	.	.	.	.	.	.	.	.	.	16cn\	.	.	.	.	.	.	.	.
8r	.	.	.	.	8Gn/J	.	8d/J	.	.	.	8r	.	16G\	.	.	.	.	.	.	.	.
.	.	.	.	.	.	.	.	.	.	.	.	.	16D\JJ	.	.	.	.	.	.	.	.
!LO:N:vis=2	!	!	!	!	!	!	!	!	!	!	!	!	!LO:TX:b:t=t.c:color=blue	!	!	!LO:TX:b:t=t.c.	!	!	!	!	!
4r	.	.	8B\	.	8B/L	.	8Gny/L	.	8d/L]	.	4GG/	.	16r	.	8d/]	8b\) 8dd	.	.	4.b/)	4.d\	.
.	.	.	.	.	.	.	.	.	.	.	.	.	16D\LL	.	.	.	.	.	.	.	.
.	.	.	8r	.	8G/	.	8B/	.	(16e|</L	.	.	.	16G\	.	(<16e|</LL	(16ee|>\LL	.	.	.	.	.
.	.	.	.	.	.	.	.	.	16f#|</	.	.	.	16D\	.	16f#|</	16ff#|>\	.	.	.	.	.
!	!	!	!	!	!	!	!	!	!	!	!	!	!	!	!	!LO:SIC:v:s=16ggn|>\	!	!	!	!	!
!	!	!	!	!	!	!	!	!	!	!	!	!	!	!	!LO:SIC:v:s=16gn/	!	!	!	!	!	!
8r	.	.	[8B\	.	8D/J 8G	.	8B/J	.	16gn|</	.	8r	.	16B\	.	16g#|</	16gg#|>\	.	.	.	.	.
.	.	.	.	.	.	.	.	.	16a|</JJ)	.	.	.	16D\JJ	.	16a|</JJ)	16aa|>\JJ)	.	.	.	.	.
=21	=21	=21	=21	=21	=21	=21	=21	=21	=21	=21	=21	=21	=21	=21	=21	=21	=21	=21	=21	=21	=21
*	*	*	*	*	*	*	*	*	*	*	*	*	*	*	*	*	*	*^	*	*	*
!LO:TX:b:t=7:color=grey	!	!	!	!	!	!	!	!	!	!	!	!	!	!	!	!	!	!	!	!	!	!
4GGn/	.	2.ryy	4B\]	.	8r	.	8r	.	4b/	.	4GGGn/ 4GGn	.	16r	.	8b/	8ggn\ 8bb	.	2.D/	2.GGn\	(4.gn/	4.B\ 4.d	.
.	.	.	.	.	.	.	.	.	.	.	.	.	16D\LL	.	.	.	.	.	.	.	.	.
!	!	!	!	!	!	!	!	!	!	!	!	!	!LO:SIC:v:s=16Gn\	!	!	!	!	!	!	!	!	!
.	.	.	.	.	8D/L 8B	.	8Gn/L 8d	.	.	.	.	.	16G#\	.	8r	8r	.	.	.	.	.	.
.	.	.	.	.	.	.	.	.	.	.	.	.	16B\	.	.	.	.	.	.	.	.	.
8r	.	.	8B\	.	8B/J 8d	.	8G/J 8gn	.	8b/	.	8r	.	16d\	.	8dd\	8gg\ 8bb	.	.	.	.	.	.
.	.	.	.	.	.	.	.	.	.	.	.	.	16gn\JJ	.	.	.	.	.	.	.	.	.
.	.	.	4qB/	.	.	.	.	.	4qb/	.	.	.	.	.	.	4qgg/	.	.	.	.	.	.
*	*	*	*	*	*	*	*	*	*	*	*rep	*	*	*	*	*	*	*	*	*	*	*
4GG/	.	.	8A\L	.	8r	.	8r	.	8a/L	.	4GGG/ 4GG	.	16f#\LL	.	8dd'\	(8ff#\L 8aa	.	.	.	8f#/L	4.cn\	.
.	.	.	.	.	.	.	.	.	.	.	.	.	16d\	.	.	.	.	.	.	.	.	.
.	.	.	8Gn\	.	8cn/L	.	8G/L 8e	.	8gn/	.	.	.	16cn\	.	8r	8ee\) 8gg	.	.	.	8e/	.	.
.	.	.	.	.	.	.	.	.	.	.	.	.	16A\	.	.	.	.	.	.	.	.	.
8r	.	.	8A\J	.	8A/J	.	8f#/J	.	8a/J	.	8r	.	16F#\	.	8dd\	8ff#\J 8aa	.	.	.	8f#/J	.	.
.	.	.	.	.	.	.	.	.	.	.	.	.	16D\JJ	.	.	.	.	.	.	.	.	.
*	*	*	*	*	*	*	*	*	*	*	*Xrep	*	*	*	*	*	*	*	*	*	*	*
*	*	*	*	*	*	*	*	*	*	*	*	*	*	*	*	*	*	*	*	*v	*v	*
!!LO:TX:t=P:problem:barlines.color=green
=22	=22	=22	=22	=22	=22	=22	=22	=22	=22	=22	=22	=22	=22	=22	=22	=22	=22	=22	=22	=22	=22
!	!	!	!	!	!LO:TX:t=P:problem:mixed beam	!	!	!	!	!	!	!	!	!	!	!	!	!	!	!	!
4GGn/	.	2.ryy	[4.B\	<	8B/L	.	8gn/L	.	[4.b\	<	4GGGn/ 4GGn	.	16r	.	8dd\	[>4.ggn\ [>4.bb	.	4.D/	2.GGn\	4.B/ 4.gn	<
.	.	.	.	.	.	.	.	.	.	.	.	.	16D\LL	<	.	.	.	.	.	.	.
.	.	.	.	.	8B/	<	8Gn/ 8d	.	.	.	.	.	16Gn\	.	8r	.	.	.	.	.	.
.	.	.	.	.	.	.	.	.	.	.	.	.	16B\	.	.	.	.	.	.	.	.
8r	.	.	.	.	8gn\J	.	8d/J 8b	<	.	.	8r	.	16d\	.	8b|>\ 8dd	.	.	.	.	.	.
.	.	.	.	.	.	.	.	.	.	.	.	.	16e\JJ	.	.	.	.	.	.	.	.
4r	.	.	4B\]	.	8B/L	.	8gn/L	.	4b\]	.	4r	.	16d\LL	.	8b|>\ 8dd	4gg\] 4bb]	.	4.Gn/	.	4.d/ 4.b	[[
.	.	.	.	.	.	.	.	.	.	.	.	.	16B\	.	.	.	.	.	.	.	.
.	.	.	.	.	8B/	.	8d/	.	.	.	.	.	16G\	.	8r	.	.	.	.	.	.
.	.	.	.	.	.	.	.	.	.	.	.	.	16D\	.	.	.	.	.	.	.	.
8r	.	.	8d\	[[	8d/J	[	8b/J	[[	8dd\	[[	8r	.	16G\	[	8dd|>\	8ddd\	f	.	.	.	.
.	.	.	.	.	.	.	.	.	.	.	.	.	16B\JJ	.	.	.	.	.	.	.	.
=23	=23	=23	=23	=23	=23	=23	=23	=23	=23	=23	=23	=23	=23	=23	=23	=23	=23	=23	=23	=23	=23
*	*	*	*	*	*tremolo	*	*tremolo	*	*	*	*tremolo	*	*ped	*	*	*ped	*	*	*	*	*
!LO:TX:a:t=arco	!LO:HP:a	!	!	!LO:DY:rj	!	!	!	!LO:DY:rj	!	!LO:DY:rj	!	!	!	!LO:DY:rj	!LO:TX:b:t=5	!	!	!LO:N:vis=2	!	!	!LO:DY:rj
4.GGn/	mf >	2.ryy	[4.e\	f	8c#X/L	.	8a#X/L	f	4.ee^\	f	32GGGn/LLL	.	16Gn^\LL	f >	(<4.a#X^\ [4.ee	(>[4.eee^\	>	2.Gn/	2.GGn^\	4.c#X^>/ 4.a#X	f >
.	.	.	.	.	.	.	.	.	.	.	32GGn/	.	.	.	.	.	.	.	.	.	.
.	.	.	.	.	.	.	.	.	.	.	32GGG/	.	16A#X\	.	.	.	.	.	.	.	.
.	.	.	.	.	.	.	.	.	.	.	32GGn/	.	.	.	.	.	.	.	.	.	.
.	.	.	.	.	8c#/	.	8a#/	>	.	.	32GGG/	.	16c#X\	.	.	.	.	.	.	.	.
.	.	.	.	.	.	.	.	.	.	.	32GGn/	.	.	.	.	.	.	.	.	.	.
.	.	.	.	.	.	.	.	.	.	.	32GGG/	.	16e\	.	.	.	.	.	.	.	.
.	.	.	.	.	.	.	.	.	.	.	32GGn/	.	.	.	.	.	.	.	.	.	.
.	.	.	.	.	8c#/J	.	8a#/J	.	.	.	32GGG/	.	16c#\	.	.	.	.	.	.	.	.
.	.	.	.	.	.	.	.	.	.	.	32GGn/	.	.	.	.	.	.	.	.	.	.
*	*	*	*	*	*Xtremolo	*	*Xtremolo	*	*	*	*	*	*Xped	*	*	*	*	*	*	*	*
.	.	.	.	.	.	.	.	.	.	.	32GGG/	.	16A#\JJ	.	.	.	.	.	.	.	.
.	.	.	.	.	.	.	.	.	.	.	32GGn/JJJ	.	.	.	.	.	.	.	.	.	.
*	*	*	*	*	*	*	*	*	*	*	*Xtremolo	*	*	*	*	*	*	*	*	*	*
!	!	!	!	!	!	!	!	!	!	!	!LO:N:vis=4	!	!	!	!	!	!	!	!	!LO:TX:t=P:problem:brak początku ligatury	!
8AA/	]	.	8e\L]	.	8d/L	.	8b/L	.	4dd\	.	4.GGG/	.	16B\LL	.	8b\L) 8ee]	8eee\L]	.	.	.	[4.d/) [4.b	]]
.	.	.	.	.	.	.	.	.	.	.	.	.	16d\	]	.	.	.	.	.	.	.
*	*	*	*	*	*	*	*	*	*	*	*	*	*	*	*	*Xped	*	*	*	*	*
!	!	!	!	!	!	!	!LO:SIC:v:s=8gn/	!	!	!	!	!	!	!	!	!	!	!	!	!	!
8r	.	.	8d\	.	8B/	.	8g#/	.	.	.	.	.	16B\	.	8dd\	8ddd\	]	.	.	.	.
.	.	.	.	.	.	.	.	.	.	.	.	.	16Gn\	.	.	.	.	.	.	.	.
8r	.	.	8Gn\J	.	8B/J	.	8d|</J	]]	8gn/	.	.	.	16D\	.	8gn\J	8ggn\J)	.	.	.	.	.
.	.	.	.	.	.	.	.	.	.	.	.	.	16BB\JJ	.	.	.	.	.	.	.	.
*	*	*	*	*	*	*	*	*	*	*	*	*	*	*	*	*	*	*v	*v	*	*
!!LO:PB:g=original
=24	=24	=24	=24	=24	=24	=24	=24	=24	=24	=24	=24	=24	=24	=24	=24	=24	=24	=24	=24	=24
*	*	*	*	*	*	*	*	*	*	*	*	*	*ped	*	*	*ped	*	*	*	*
!	!	!	!	!	!	!	!	!	!	!	!	!	!LO:TX:t=P:problem:ped.color=blue	!	!	!	!	!	!	!
4GGn/	.	2.ryy	[2.B\	.	8r	.	8r	.	[2.b\	.	4GGGn/ 4GGn	.	16r	.	[4.b/	[4.bb\	.	[4.Gn\	4.d/_ 4.b_	pp
.	.	.	.	.	.	.	.	.	.	.	.	.	(16D\LL	.	.	.	.	.	.	.
.	.	.	.	.	8B/L	.	8d/L	.	.	.	.	.	16Gn\	.	.	.	.	.	.	.
.	.	.	.	.	.	.	.	.	.	.	.	.	16d\	.	.	.	.	.	.	.
8r	.	.	.	.	8B/J	.	8gn/J	.	.	.	8r	.	16B\	.	.	.	.	.	.	.
!	!	!	!	!	!	!	!	!	!	!	!	!	!LO:TX:b:t=u.c.:color=blue	!	!	!	!	!	!	!
.	.	.	.	.	.	.	.	.	.	.	.	.	16A\JJ	.	.	.	.	.	.	.
!	!	!	!	!	!	!	!	!	!	!	!	!	!	!	!	!LO:TX:b:t=u.c	!	!	!	!
4r	.	.	.	.	8Gn/L	.	8B/L	.	.	.	4GG/	.	16G\LL	.	4b/]	4bb\]	.	8G\]	8d/] 8b]	.
.	.	.	.	.	.	.	.	.	.	.	.	.	16A\	.	.	.	.	.	.	.
.	.	.	.	.	8B/	.	8d/	.	.	.	.	.	16B\	.	.	.	.	8r	8r	.
.	.	.	.	.	.	.	.	.	.	.	.	.	16A\	.	.	.	.	.	.	.
!	!	!	!	!	!	!	!	!	!	!	!	!	!	!LO:DY:color=blue	!	!	!	!	!	!
8r	.	.	.	.	8G/J	.	8Gn/J	.	.	.	8r	.	16G\	pp	16r@	16r	pp	8r	8r	.
!	!	!	!	!	!	!	!	!	!	!	!	!	!	!	!LO:S:color=blue	!	!	!	!	!
.	.	.	.	.	.	.	.	.	.	.	.	.	16F#\JJ)	.	(32b/LLL	(32bb^\LLL	.	.	.	.
!	!	!	!	!	!	!	!	!	!	!	!	!	!	!	!	!LO:TX:b:i:t=legier:color=blue	!	!	!	!
.	.	.	.	.	.	.	.	.	.	.	.	.	.	.	32gn/JJJ	32ggn\JJJ	.	.	.	.
=25	=25	=25	=25	=25	=25	=25	=25	=25	=25	=25	=25	=25	=25	=25	=25	=25	=25	=25	=25	=25
!LO:TX:b:t=8:color=grey	!	!	!	!	!	!	!	!	!	!	!	!	!LO:TX:b:t=g:color=red	!	!	!	!	!	!	!
4GGn/	.	2.ryy	2.B\_	.	8r	.	8r	.	2.b\_	.	8GGn/	.	16Gn|>	.	8e/)	8ee\)	.	2.r	2.r	.
.	.	.	.	.	.	.	.	.	.	.	.	.	(16BB\LL	.	.	.	.	.	.	.
.	.	.	.	.	8B/L	.	8e/L	.	.	.	8r	.	16E\	.	8r	8r	.	.	.	.
.	.	.	.	.	.	.	.	.	.	.	.	.	16B\	.	.	.	.	.	.	.
*	*	*	*	*	*	*	*	*	*	*	*	*	*	*	*	*Xped	*	*	*	*
8r	.	.	.	.	8B/J	.	8e/J 8b	.	.	.	(8GG/	.	16E\	.	8e/ 8b	8ee\	.	.	.	.
!	!	!	!	!	!	!	!	!	!	!	!	!	!LO:TX:t=P:problem:ped.color=blue	!	!	!	!	!	!	!
*	*	*	*	*	*	*	*	*	*	*	*	*	*Xped	*	*	*	*	*	*	*
.	.	.	.	.	.	.	.	.	.	.	.	.	16BB\JJ)	.	.	.	.	.	.	.
*	*	*	*	*	*	*	*	*	*	*	*	*	*ped	*	*	*ped	*	*	*	*
!	!	!	!	!	!	!	!	!	!	!	!	!	!LO:TX:t=P:problem:ped.color=blue	!	!	!	!	!	!	!
!	!	!	!	!	!	!	!	!	!	!	!	!	!LO:TX:t=P:problem:brak pauzy 16r	!	!	!	!	!	!	!
4AA\	.	.	.	.	8r	.	8r	.	.	.	8AA/)	.	16ryy	.	4d#X/ 4b	(4dd#X\	.	.	.	.
.	.	.	.	.	.	.	.	.	.	.	.	.	(16BB\LL	.	.	.	.	.	.	.
.	.	.	.	.	8B/L 8d#X	.	8f#/L	.	.	.	8r	.	16F#\	.	.	.	.	.	.	.
.	.	.	.	.	.	.	.	.	.	.	.	.	16B\	.	.	.	.	.	.	.
!	!	!	!	!	!	!	!	!	!	!	!	!	!	!	!	!LO:TX:b:t=(x):color=red	!	!	!	!
8r	.	.	.	.	8B/J 8d#	.	8f#/J 8b	.	.	.	(8AA/	.	16F#\	.	8d#'/ 8f#	8ff#\)	.	.	.	.
.	.	.	.	.	.	.	.	.	.	.	.	.	16BB\JJ)	.	.	.	.	.	.	.
=26	=26	=26	=26	=26	=26	=26	=26	=26	=26	=26	=26	=26	=26	=26	=26	=26	=26	=26	=26	=26
4GGn\	.	2.ryy	4.B\_	.	8r	.	8r	.	4.b\_	.	4GGn/)	.	16r	.	4e/ 4b	[2.ee\	.	2.r	2.r	.
.	.	.	.	.	.	.	.	.	.	.	.	.	(16BB\LL	.	.	.	.	.	.	.
!	!	!	!	!	!	!	!LO:TX:t=P:problem:mixed beam	!	!	!	!	!	!	!	!	!	!	!	!	!
.	.	.	.	.	8B/L	.	8f#/L	.	.	.	.	.	16E\	.	.	.	.	.	.	.
.	.	.	.	.	.	.	.	.	.	.	.	.	16B\	.	.	.	.	.	.	.
8r	.	.	.	.	8B/J 8e	.	8ee\J	.	.	.	8GG'/	.	16Gn\	.	8e/ 8b	.	.	.	.	.
*	*	*	*	*	*	*	*	*	*	*	*	*	*Xped	*	*	*	*	*	*	*
!	!	!	!	!	!	!	!	!	!	!	!	!	!LO:TX:t=P:problem:ped.color=blue	!	!	!	!	!	!	!
.	.	.	.	.	.	.	.	.	.	.	.	.	16F#\JJ	.	.	.	.	.	.	.
!	!	!	!	!	!	!	!	!	!	!	!	!	!LO:TX:b:t=t.c.:color=blue	!	!	!	!	!	!	!
4Gn\	.	.	4B\]	.	8B/L 8e	.	8b/L	.	4b\]	.	4GG'/	.	16E\LL	.	8e/ 8b	.	.	.	.	.
.	.	.	.	.	.	.	.	.	.	.	.	.	16F#\	.	.	.	.	.	.	.
!	!	!	!	!	!	!	!LO:SIC:v:s=8gn/	!	!	!	!	!	!	!	!LO:TX:a:t=t.c.	!	!	!	!	!
.	.	.	.	.	8B/ 8e	.	8g#/	.	.	.	.	.	16G\	.	8r	.	.	.	.	.
.	.	.	.	.	.	.	.	.	.	.	.	.	16F#\	.	.	.	.	.	.	.
!	!	!	!LO:TX:b:t=Cantabile:color=blue	!	!	!	!	!	!LO:TX:a:t=Cantabile:color=blue	!	!	!	!	!	!LO:TX:a:t=cantabile	!	!	!	!	!
8r	.	.	(16B^\LL	.	8B/J	.	8e/J	.	(16b^/LL	.	(8GG/	.	16E\	.	(16b^/LL	.	.	.	.	.
!	!	!	!LO:SIC:v:s=16Gn\JJ	!	!	!	!	!	!LO:SIC:v:s=16gn/	!	!	!	!	!	!LO:SIC:v:s=16gn/	!	!	!	!	!
.	.	.	16G#\JJ	.	.	.	.	.	16g#/JJ	.	.	.	16BB\JJ)	.	16g#/JJ)	.	.	.	.	.
=27	=27	=27	=27	=27	=27	=27	=27	=27	=27	=27	=27	=27	=27	=27	=27	=27	=27	=27	=27	=27
!	!	!	!	!	!	!	!	!	!	!LO:HP:a	!	!	!	!	!	!	!	!	!	!
4GGn/	.	2.ryy	4E\)	<	8r	.	8r	.	4e/)	<	8GGGn/) 8GGn	.	16r	.	4e/	4ee\]	.	2.r	2.r	.
.	.	.	.	.	.	.	.	.	.	.	.	.	(16BB\LL	.	.	.	.	.	.	.
.	.	.	.	.	8B/L	.	8e/L	.	.	.	8r	.	16E\	.	.	.	.	.	.	.
.	.	.	.	.	.	.	.	.	.	.	.	.	16B\	.	.	.	.	.	.	.
8r@	.	.	8e\	.	8B/J	.	8e/J 8b	.	8e/	.	(8GG/	.	16E\	.	8e/	8b|>\ 8ee	.	.	.	.
.	.	.	.	.	.	.	.	.	.	.	.	.	16BB\JJ)	.	.	.	.	.	.	.
!	!	!	!	!	!	!	!LO:N:vis=8	!	!	!	!	!	!	!	!	!	!	!	!	!
4GG/	.	.	(4e^\	.	8r	.	16r	.	(4e^/	.	8GGG/) 8GG	.	16r	.	4e|>/	(4b^\ 4ee	.	.	.	.
!	!	!	!	!	!	!	!LO:N:vis=8	!	!	!	!	!	!	!	!	!	!	!	!	!
.	.	.	.	.	.	.	16r	.	.	.	.	.	(16E\LL	.	.	.	.	.	.	.
.	.	.	.	.	8E/L	.	8B/L	.	.	.	8r	.	16Gn\	.	.	.	.	.	.	.
.	.	.	.	.	.	.	.	.	.	.	.	.	16B\	.	.	.	.	.	.	.
8r@	.	.	8d\)	[	8E/J	.	8B/J 8e	.	8d/)	[	8GGG'/ 8GG	.	16G\	.	8e/	8b\) 8dd	.	.	.	.
!	!	!	!	!	!	!	!	!	!	!	!	!	!LO:TX:b:t=(xx):color=red	!	!	!	!	!	!	!
.	.	.	.	.	.	.	.	.	.	.	.	.	16E\JJ)	.	.	.	.	.	.	.
=28	=28	=28	=28	=28	=28	=28	=28	=28	=28	=28	=28	=28	=28	=28	=28	=28	=28	=28	=28	=28
*	*	*	*	*	*	*	*	*	*	*	*	*	*	*	*	*^	*	*	*	*
4GGn/	.	2.ryy	(4.d^\	.	8E/L 8Gn	.	8B-X/L	.	(4.d^/	.	4.GGGn/ 4.GGn	.	16r	.	2.e/	(4.dd/	2.b-X\	sf	2.G#\ 2.B-X	2.r	.
.	.	.	.	.	.	.	.	.	.	.	.	.	(16E\LL	.	.	.	.	.	.	.	.
.	.	.	.	.	8B-X/	.	8gn/	.	.	.	.	.	16Gn\	.	.	.	.	.	.	.	.
.	.	.	.	.	.	.	.	.	.	.	.	.	16A\	.	.	.	.	.	.	.	.
8r	.	.	.	.	8G/J	.	8e/J	.	.	.	.	.	16B-X\	.	.	.	.	.	.	.	.
.	.	.	.	.	.	.	.	.	.	.	.	.	16d\JJ	.	.	.	.	.	.	.	.
*	*	*	*	*	*tremolo	*	*tremolo	*	*	*	*	*	*	*	*	*	*	*	*	*	*
4Gn\	.	.	4c#X\)	.	8B-/L	.	8Gn/L 8e	.	4c#X/)	.	4GG|</	.	16B-\LL	.	.	8cc#X/)	.	.	.	.	.
.	.	.	.	.	.	.	.	.	.	.	.	.	16A\	.	.	.	.	.	.	.	.
.	.	.	.	.	8B-/	.	8Gn/ 8e	.	.	.	.	.	16G\	.	.	8r	.	.	.	.	.
.	.	.	.	.	.	.	.	.	.	.	.	.	16d\	.	.	.	.	.	.	.	.
!	!	!	!	!	!	!	!	!	!	!LO:DY:rj	!	!	!	!	!	!	!	!	!	!	!
8ryy	.	.	8c#\	.	8B-/J	.	8Gn/J 8e	.	8cc#X\	p	8r	.	16B-\	.	.	8cc#/	.	.	.	.	.
*	*	*	*	*	*Xtremolo	*	*Xtremolo	*	*	*	*	*	*	*	*	*	*	*	*	*	*
.	.	.	.	.	.	.	.	.	.	.	.	.	16G\JJ)	.	.	.	.	.	.	.	.
*	*	*	*	*	*	*	*	*	*	*	*	*	*	*	*	*v	*v	*	*	*	*
!!LO:PB:g=original
=29	=29	=29	=29	=29	=29	=29	=29	=29	=29	=29	=29	=29	=29	=29	=29	=29	=29	=29	=29	=29
*	*	*	*	*	*tremolo	*	*tremolo	*	*	*	*	*	*ped	*	*	*ped	*	*	*	*
!	!	!	!	!	!	!	!	!	!	!	!LO:TX:b:t=8	!	!	!	!	!	!	!	!LO:TX:b:t=crec--cen--do.:problem:dynamics with extention lines	!LO:HP:t=cres--cen--do.:ext:cd
4F#\	.	2.ryy	4d\	.	32A/LLL	.	32d/LLL	.	(4dd^\	.	4FFF#/yy 4FF#	.	8r	.	8d/	(4a^\ 4dd	.	2.F#\	2.d/ 2.a	<
.	.	.	.	.	32A/	.	32d/	.	.	.	.	.	.	.	.	.	.	.	.	.
.	.	.	.	.	32A/	.	32d/	.	.	.	.	.	.	.	.	.	.	.	.	.
.	.	.	.	.	32A/	.	32d/	.	.	.	.	.	.	.	.	.	.	.	.	.
.	.	.	.	.	32A/	.	32d/	.	.	.	.	.	8D|>\L 8A	.	8r	.	.	.	.	.
.	.	.	.	.	32A/	.	32d/	.	.	.	.	.	.	.	.	.	.	.	.	.
.	.	.	.	.	32A/	.	32d/	.	.	.	.	.	.	.	.	.	.	.	.	.
.	.	.	.	.	32A/	.	32d/	.	.	.	.	.	.	.	.	.	.	.	.	.
8r	.	.	8A\	.	32A/	.	32d/	.	8a\)	.	4r	.	8D|>\J 8A 8d	.	8a/	8aa\)	.	.	.	.
.	.	.	.	.	32A/	.	32d/	.	.	.	.	.	.	.	.	.	.	.	.	.
.	.	.	.	.	32A/	.	32d/	.	.	.	.	.	.	.	.	.	.	.	.	.
.	.	.	.	.	32A/	.	32d/	.	.	.	.	.	.	.	.	.	.	.	.	.
*	*	*	*	*	*	*	*	*	*	*	*	*	*Xped	*	*	*Xped	*	*	*	*
!LO:TX:b:t=cres---cen---do:problem:dynamics with extention lines	!LO:HPt=cres---cen---do:ext=cd	!	!	!	!	!	!	!	!	!	!	!	!	!	!	!	!	!	!	!
4D\	<	.	8A\L	.	32A/	.	32d/	.	8a\L	.	.	.	8r	.	(8a/L	(8aa\L	.	.	.	.
.	.	.	.	.	32A/	.	32d/	.	.	.	.	.	.	.	.	.	.	.	.	.
.	.	.	.	.	32A/	.	32d/	.	.	.	.	.	.	.	.	.	.	.	.	.
.	.	.	.	.	32A/	.	32d/	.	.	.	.	.	.	.	.	.	.	.	.	.
!	!	!	!LO:TX:b:t=cres---cen---do:problem:dynamics with extention lines	!LO:HP:t=cres---cen---do:ext=cd	!	!	!	!	!LO:TX:b:t=cres___cen__do:problem:dynamics with extention lines	!LO:HP:t=cres___cen_do:ext=ud	!LO:TX:b:t=8	!	!LO:TX:b:t=cres---cen-do:ext=cd:color=blue:dynamics with extention lines	!LO:HP:t=cres-cen-do:ext=cd:color=blue	!	!	!	!	!	!
.	.	.	8B\	<	32A/	.	32d/	.	8b\	<	4DDD/yy 4DD	.	8D|>\L 8F# 8A	<	8b/	8bb\	.	.	.	.
.	.	.	.	.	32A/	.	32d/	.	.	.	.	.	.	.	.	.	.	.	.	.
.	.	.	.	.	32A/	.	32d/	.	.	.	.	.	.	.	.	.	.	.	.	.
.	.	.	.	.	32A/	.	32d/	.	.	.	.	.	.	.	.	.	.	.	.	.
!	!	!	!	!	!	!	!	!	!	!	!	!	!	!	!	!LO:TX:b:t=cres-cen-do:ext=cd:color=blue:dynamics with extention lines	!LO:HP:t=cres-cen-do:ext=cd:color=blue	!	!	!
8r	.	.	8cn\J	.	32A/	.	32d/	.	8ccn\J	.	.	.	8F#|>\J 8A 8d	.	8ccn/J)	8cccn\J)	<	.	.	.
.	.	.	.	.	32A/	.	32d/	.	.	.	.	.	.	.	.	.	.	.	.	.
.	.	.	.	.	32A/	.	32d/	.	.	.	.	.	.	.	.	.	.	.	.	.
.	.	.	.	.	32A/JJJ	.	32d/JJJ	.	.	.	.	.	.	.	.	.	.	.	.	.
=30	=30	=30	=30	=30	=30	=30	=30	=30	=30	=30	=30	=30	=30	=30	=30	=30	=30	=30	=30	=30
!	!	!	!	!	!	!	!	!	!	!	!	!	!	!	!	!	!	!LO:N:vis=2	!	!
4Gn\	.	2.ryy	(4cn^\	.	32Gn/LLL	.	32d/LLL	.	(4ccn^\	.	4GGGn/ 4GGn	.	8r	.	(4ccn\	(4cccn\	.	[<2.Gn\	2.d/ 2.b	.
.	.	.	.	.	32G/	.	32d/	.	.	.	.	.	.	.	.	.	.	.	.	.
.	.	.	.	.	32G/	.	32d/	.	.	.	.	.	.	.	.	.	.	.	.	.
.	.	.	.	.	32G/	.	32d/	.	.	.	.	.	.	.	.	.	.	.	.	.
.	.	.	.	.	32G/	.	32d/	.	.	.	.	.	8D|>\L 8Gn	.	.	.	.	.	.	.
.	.	.	.	.	32G/	.	32d/	.	.	.	.	.	.	.	.	.	.	.	.	.
.	.	.	.	.	32G/	.	32d/	.	.	.	.	.	.	.	.	.	.	.	.	.
.	.	.	.	.	32G/	.	32d/	.	.	.	.	.	.	.	.	.	.	.	.	.
8r	.	.	8B\	.	32G/	.	32d/	.	8b\	.	8r	.	8G|>\J 8B 8d	.	8b\	8bb\	.	.	.	.
.	.	.	.	.	32G/	.	32d/	.	.	.	.	.	.	.	.	.	.	.	.	.
.	.	.	.	.	32G/	.	32d/	.	.	.	.	.	.	.	.	.	.	.	.	.
.	.	.	.	.	32G/JJJ	.	32d/	.	.	.	.	.	.	.	.	.	.	.	.	.
4G\	.	.	8d\)	.	32B/LLL	.	32d/	.	8dd\)	.	4GGG/ 4GG	.	8r	.	8dd\)	8ddd\)	.	.	.	.
.	.	.	.	.	32B/	.	32d/	.	.	.	.	.	.	.	.	.	.	.	.	.
.	.	.	.	.	32B/	.	32d/	.	.	.	.	.	.	.	.	.	.	.	.	.
.	.	.	.	.	32B/	.	32d/	.	.	.	.	.	.	.	.	.	.	.	.	.
.	.	.	8r	.	32B/	.	32d/	.	8r	.	.	.	8D|>\L 8G 8B	.	8r	8r	.	.	.	.
.	.	.	.	.	32B/	.	32d/	.	.	.	.	.	.	.	.	.	.	.	.	.
.	.	.	.	.	32B/	.	32d/	.	.	.	.	.	.	.	.	.	.	.	.	.
.	.	.	.	.	32B/	.	32d/	.	.	.	.	.	.	.	.	.	.	.	.	.
!	!	!	!	!	!	!	!	!	!	!	!LO:TX:t=P:problem:brak pauzy 8r	!	!	!	!	!	!	!	!	!
8r	.	.	8e\	.	32B/	.	32d/	.	8ee\	.	8ryy	.	8G|>\J 8B 8d	.	8ee|>\	8eee|>\	.	.	.	.
.	.	.	.	.	32B/	.	32d/	.	.	.	.	.	.	.	.	.	.	.	.	.
.	.	.	.	.	32B/	.	32d/	.	.	.	.	.	.	.	.	.	.	.	.	.
.	.	.	.	.	32B/JJJ	.	32d/JJJ	.	.	.	.	.	.	.	.	.	.	.	.	.
=31	=31	=31	=31	=31	=31	=31	=31	=31	=31	=31	=31	=31	=31	=31	=31	=31	=31	=31	=31	=31
*	*	*	*	*	*	*	*	*	*	*	*	*	*	*	*	*	*	*	*^	*
*	*	*	*	*	*	*	*	*	*	*	*	*	*ped	*	*	*ped	*	*	*	*	*
!	!	!	!	!	!	!	!	!	!	!	!LO:SIC:v:s=4Ggn/ 4Gn	!	!	!	!LO:TX:t=P:problem:ped.color=blue	!	!	!	!	!	!
4Gn\	.	2.ryy	4e^\	.	32B/LLL	.	32e/LLL	.	(4ee^\	.	4GGG#/ 4GG#	.	8r	.	(4ee^\	(4eee^\	.	4.G\]	2.b/	2.e\	.
.	.	.	.	.	32B/	.	32e/	.	.	.	.	.	.	.	.	.	.	.	.	.	.
.	.	.	.	.	32B/	.	32e/	.	.	.	.	.	.	.	.	.	.	.	.	.	.
.	.	.	.	.	32B/	.	32e/	.	.	.	.	.	.	.	.	.	.	.	.	.	.
.	.	.	.	.	32B/	.	32e/	.	.	.	.	.	8E\L 8B	.	.	.	.	.	.	.	.
.	.	.	.	.	32B/	.	32e/	.	.	.	.	.	.	.	.	.	.	.	.	.	.
.	.	.	.	.	32B/	.	32e/	.	.	.	.	.	.	.	.	.	.	.	.	.	.
.	.	.	.	.	32B/	.	32e/	.	.	.	.	.	.	.	.	.	.	.	.	.	.
*	*	*	*	*	*	*	*	*	*	*	*	*	*	*	*	*Xped	*	*	*	*	*
!	!	!	!	!	!	!	!	!	!	!	!	!	!	!	!	!LO:TX:t=P:problem:ped.color=blue	!	!	!	!	!
8r	.	.	8B\	.	32B/	.	32e/	.	8b\)	.	8r	.	8G#\J 8B 8e	.	8b\)	8bb\)	.	.	.	.	.
.	.	.	.	.	32B/	.	32e/	.	.	.	.	.	.	.	.	.	.	.	.	.	.
.	.	.	.	.	32B/	.	32e/	.	.	.	.	.	.	.	.	.	.	.	.	.	.
.	.	.	.	.	32B/	.	32e/	.	.	.	.	.	.	.	.	.	.	.	.	.	.
*	*	*	*	*	*	*	*	*	*	*	*	*	*Xped	*	*	*	*	*	*	*	*
4G#X\	.	.	(8B\L	.	32B/	.	32e/	.	(8b\L	.	4GGG#X/ 4GG#X	.	8r	.	8b\L	8bb\L	.	4.G#X\	.	.	.
.	.	.	.	.	32B/	.	32e/	.	.	.	.	.	.	.	.	.	.	.	.	.	.
.	.	.	.	.	32B/	.	32e/	.	.	.	.	.	.	.	.	.	.	.	.	.	.
.	.	.	.	.	32B/	.	32e/	.	.	.	.	.	.	.	.	.	.	.	.	.	.
.	.	.	8c#X\)	.	32B/	.	32e/	.	8cc#X\)	.	.	.	8E\L 8B	.	8cc#X\	8ccc#X\	.	.	.	.	.
.	.	.	.	.	32B/	.	32e/	.	.	.	.	.	.	.	.	.	.	.	.	.	.
.	.	.	.	.	32B/	.	32e/	.	.	.	.	.	.	.	.	.	.	.	.	.	.
.	.	.	.	.	32B/	.	32e/	.	.	.	.	.	.	.	.	.	.	.	.	.	.
8r	.	.	8d\J	.	32B/	.	32e/	.	8dd'\J	.	8r	.	8B\J 8d 8e	.	8dd\J	8ddd\J	.	.	.	.	.
.	.	.	.	.	32B/	.	32e/	.	.	.	.	.	.	.	.	.	.	.	.	.	.
.	.	.	.	.	32B/	.	32e/	.	.	.	.	.	.	.	.	.	.	.	.	.	.
.	.	.	.	.	32B/JJJ	.	32e/JJJ	.	.	.	.	.	.	.	.	.	.	.	.	.	.
=32	=32	=32	=32	=32	=32	=32	=32	=32	=32	=32	=32	=32	=32	=32	=32	=32	=32	=32	=32	=32	=32
4A\	.	2.ryy	(4.d\	.	32A/LLL	.	32e/LLL	.	(4.dd^\	.	4AAA/ 4AA	.	8r	.	(4.dd^\	(4.ddd^\	.	2.A\	2.cc#/	2.e\	[
.	.	.	.	.	32A/	.	32e/	.	.	.	.	.	.	.	.	.	.	.	.	.	.
.	.	.	.	.	32A/	.	32e/	.	.	.	.	.	.	.	.	.	.	.	.	.	.
.	.	.	.	.	32A/	.	32e/	.	.	.	.	.	.	.	.	.	.	.	.	.	.
.	.	.	.	.	32A/	.	32e/	.	.	.	.	.	8E\L 8A	.	.	.	.	.	.	.	.
.	.	.	.	.	32A/	.	32e/	.	.	.	.	.	.	.	.	.	.	.	.	.	.
.	.	.	.	.	32A/	.	32e/	.	.	.	.	.	.	.	.	.	.	.	.	.	.
.	.	.	.	.	32A/	.	32e/	.	.	.	.	.	.	.	.	.	.	.	.	.	.
8r	.	.	.	.	32A/	.	32e/	.	.	.	8r	.	8A\J 8c#X 8e	.	.	.	.	.	.	.	.
.	.	.	.	.	32A/	.	32e/	.	.	.	.	.	.	.	.	.	.	.	.	.	.
.	.	.	.	.	32A/	.	32e/	.	.	.	.	.	.	.	.	.	.	.	.	.	.
.	.	.	.	.	32A/JJJ	.	32e/	.	.	.	.	.	.	.	.	.	.	.	.	.	.
4A\	.	.	4c#\)	.	32c#/LLL	.	32e/	.	4cc#\	.	4AAA/ 4AA	.	8r	.	4cc#X\)	4ccc#X\)	.	.	.	.	.
.	.	.	.	.	32c#/	.	32e/	.	.	.	.	.	.	.	.	.	.	.	.	.	.
.	.	.	.	.	32c#/	.	32e/	.	.	.	.	.	.	.	.	.	.	.	.	.	.
.	.	.	.	.	32c#/	.	32e/	.	.	.	.	.	.	.	.	.	.	.	.	.	.
.	.	.	.	.	32c#/	.	32e/	.	.	.	.	.	8E\L 8A 8c#X	[	.	.	[[	.	.	.	.
.	.	.	.	.	32c#/	.	32e/	.	.	.	.	.	.	.	.	.	.	.	.	.	.
.	.	.	.	.	32c#/	.	32e/	.	.	.	.	.	.	.	.	.	.	.	.	.	.
.	.	.	.	.	32c#/	.	32e/	.	.	.	.	.	.	.	.	.	.	.	.	.	.
8r	.	.	8f#\	[	32c#/	.	32e/	.	8ff#\)	[[	8r	.	8c#\J 8e	.	8ff#\	8fff#\	.	.	.	.	.
.	.	.	.	.	32c#/	.	32e/	.	.	.	.	.	.	.	.	.	.	.	.	.	.
.	.	.	.	.	32c#/	.	32e/	.	.	.	.	.	.	.	.	.	.	.	.	.	.
.	.	.	.	.	32c#/JJJ	.	32e/JJJ	.	.	.	.	.	.	.	.	.	.	.	.	.	.
=33	=33	=33	=33	=33	=33	=33	=33	=33	=33	=33	=33	=33	=33	=33	=33	=33	=33	=33	=33	=33	=33
*	*	*	*	*	*	*	*	*	*	*	*	*	*ped	*	*	*ped	*	*	*	*	*
!	!	!	!	!LO:DY:rj	!	!LO:DY:rj	!	!LO:DY:rj	!	!	!	!	!	!LO:DY:rj:color=blue	!	!LO:TX:t=P:problem:ped.color=blue	!LO:DY:f:rj:color=blue	!	!	!	!LO:DY:rj
4A\	.	2.ryy	4f#^\	f	32c#/LLL	f	32f#/LLL	f	(4ff#^\	f	4AAA/ 4AA	.	8r	f	(4ff#^\	(4fff#^\	f	(4.A\	2.cc#/	2.f#\	f
.	.	.	.	.	32c#/	.	32f#/	.	.	.	.	.	.	.	.	.	.	.	.	.	.
.	.	.	.	.	32c#/	.	32f#/	.	.	.	.	.	.	.	.	.	.	.	.	.	.
.	.	.	.	.	32c#/	.	32f#/	.	.	.	.	.	.	.	.	.	.	.	.	.	.
.	.	.	.	.	32c#/	.	32f#/	.	.	.	.	.	8F#\L 8c#	.	.	.	.	.	.	.	.
.	.	.	.	.	32c#/	.	32f#/	.	.	.	.	.	.	.	.	.	.	.	.	.	.
.	.	.	.	.	32c#/	.	32f#/	.	.	.	.	.	.	.	.	.	.	.	.	.	.
.	.	.	.	.	32c#/	.	32f#/	.	.	.	.	.	.	.	.	.	.	.	.	.	.
!	!	!	!	!	!	!	!	!	!	!	!	!	!	!	!	!LO:TX:t=P:problem:ped.color=blue	!	!	!	!	!
8r	[ f	.	8c#|>\	.	32c#/	.	32f#/	.	8cc#\)	.	8r	.	8c#\J 8f#	.	8cc#\)	8ccc#\)	.	.	.	.	.
*	*	*	*	*	*	*	*	*	*	*	*	*	*Xped	*	*	*Xped	*	*	*	*	*
.	.	.	.	.	32c#/	.	32f#/	.	.	.	.	.	.	.	.	.	.	.	.	.	.
.	.	.	.	.	32c#/	.	32f#/	.	.	.	.	.	.	.	.	.	.	.	.	.	.
.	.	.	.	.	32c#/	.	32f#/	.	.	.	.	.	.	.	.	.	.	.	.	.	.
4A#X\	.	.	8.c#^\L	.	32c#/	.	32f#/	.	8.cc#^\L	.	4AAA#X/ 4AA#X	.	8r	.	8.cc#\L	8.ccc#\L	.	8A#X\L)	.	.	.
.	.	.	.	.	32c#/	.	32f#/	.	.	.	.	.	.	.	.	.	.	.	.	.	.
.	.	.	.	.	32c#/	.	32f#/	.	.	.	.	.	.	.	.	.	.	.	.	.	.
.	.	.	.	.	32c#/	.	32f#/	.	.	.	.	.	.	.	.	.	.	.	.	.	.
.	.	.	.	.	32c#/	.	32f#/	.	.	.	.	.	8F#|>\L 8c#	.	.	.	.	8B\	.	.	.
.	.	.	.	.	32c#/	.	32f#/	.	.	.	.	.	.	.	.	.	.	.	.	.	.
.	.	.	16dn\K	.	32c#/	.	32f#/	.	16b\L	.	.	.	.	.	16dd\K	16ddd\K	.	.	.	.	.
.	.	.	.	.	32c#/	.	32f#/	.	.	.	.	.	.	.	.	.	.	.	.	.	.
8r	.	.	8e\J	.	32c#/	.	32f#/	.	16dd\	.	8r	.	8c#|>\J 8e 8f#	.	8ee\J	8eee\J	.	8c#\J	.	.	.
.	.	.	.	.	32c#/	.	32f#/	.	.	.	.	.	.	.	.	.	.	.	.	.	.
!	!	!	!	!	!	!	!	!	!LO:N:vis=8	!	!	!	!	!	!	!	!	!	!	!	!
.	.	.	.	.	32c#/	.	32f#/	.	16ee\JJ	.	.	.	.	.	.	.	.	.	.	.	.
.	.	.	.	.	32c#/JJJ	.	32f#/JJJ	.	.	.	.	.	.	.	.	.	.	.	.	.	.
*	*	*	*	*	*	*	*	*	*	*	*	*	*	*	*	*	*	*	*v	*v	*
!!LO:PB:g=original
=34	=34	=34	=34	=34	=34	=34	=34	=34	=34	=34	=34	=34	=34	=34	=34	=34	=34	=34	=34	=34
!LO:TX:a:t=10	!	!	!	!	!	!	!	!	!	!	!	!	!	!	!	!	!	!	!	!
4B\	.	2.ryy	(4.e\	>	32c#/LLL	>	32f#/LLL	>	(4.ee\	>	4BBB/ 4BB	.	8r	.	(4.ee^\	(4.eee^\	.	2.ryy	2.f#/	.
.	.	.	.	.	32c#/	.	32f#/	.	.	.	.	.	.	.	.	.	.	.	.	.
.	.	.	.	.	32c#/	.	32f#/	.	.	.	.	.	.	.	.	.	.	.	.	.
.	.	.	.	.	32c#/	.	32f#/	.	.	.	.	.	.	.	.	.	.	.	.	.
.	.	.	.	.	32c#/	.	32f#/	.	.	.	.	.	8F#'\L 8B	>	.	.	.	.	.	.
.	.	.	.	.	32c#/	.	32f#/	.	.	.	.	.	.	.	.	.	.	.	.	.
.	.	.	.	.	32c#/	.	32f#/	.	.	.	.	.	.	.	.	.	.	.	.	.
.	.	.	.	.	32c#/	.	32f#/	.	.	.	.	.	.	.	.	.	.	.	.	.
8r	.	.	.	.	32c#/	.	32f#/	.	.	.	8r	.	8B'\J 8f#	.	.	.	.	.	.	.
.	.	.	.	.	32c#/	.	32f#/	.	.	.	.	.	.	.	.	.	.	.	.	.
.	.	.	.	.	32c#/	.	32f#/	.	.	.	.	.	.	.	.	.	.	.	.	.
.	.	.	.	.	32c#/JJJ	.	32f#/	.	.	.	.	.	.	.	.	.	.	.	.	.
*	*	*	*	*	*	*	*	*	*	*	*	*	*	*	*	*ped	*	*	*	*
!	!	!	!	!	!	!	!	!	!	!	!	!	!	!LO:DY:t=ppp.	!	!LO:TX:b:t=u.c.	!	!	!	!
4BB/	.	.	[4.d\)	] ppp	32B/LLL	] ppp	32f#/	] ppp	[4.dd\)	] ppp	4BBB/ 4BB	.	8r	] ppp	4dd\)	4ddd\)	.	.	.	.
.	.	.	.	.	32B/	.	32f#/	.	.	.	.	.	.	.	.	.	.	.	.	.
.	.	.	.	.	32B/	.	32f#/	.	.	.	.	.	.	.	.	.	.	.	.	.
.	.	.	.	.	32B/	.	32f#/	.	.	.	.	.	.	.	.	.	.	.	.	.
.	.	.	.	.	32B/	.	32f#/	.	.	.	.	.	8D\L 8F#	.	.	.	.	.	.	.
.	.	.	.	.	32B/	.	32f#/	.	.	.	.	.	.	.	.	.	.	.	.	.
.	.	.	.	.	32B/	.	32f#/	.	.	.	.	.	.	.	.	.	.	.	.	.
.	.	.	.	.	32B/	.	32f#/	.	.	.	.	.	.	.	.	.	.	.	.	.
8r	.	.	.	.	32d/	.	32f#/	.	.	.	8r	.	8B\J 8d	.	16r	16r	.	.	.	.
.	.	.	.	.	32d/	.	32f#/	.	.	.	.	.	.	.	.	.	.	.	.	.
!	!	!	!	!	!	!	!	!	!	!	!	!	!	!	!	!	!LO:DY:t=pp.	!	!	!
.	.	.	.	.	32d/	.	32f#/	.	.	.	.	.	.	.	(32dd/LLL	(32ddd\LLL	pp	.	.	.
.	.	.	.	.	32d/JJJ	.	32f#/JJJ	.	.	.	.	.	.	.	32b/JJJ	32bb\JJJ	.	.	.	.
=35	=35	=35	=35	=35	=35	=35	=35	=35	=35	=35	=35	=35	=35	=35	=35	=35	=35	=35	=35	=35
!	!LO:DY:a	!	!	!	!	!	!LO:SIC:v:s=32Gn/ 32gn	!	!	!	!	!	!	!	!	!LO:TX:b:t=legier:color=blue	!	!	!	!
4BB/	ppp	2.ryy	2.d\_	.	32D/LLL	.	32G#/LLL 32g#	.	2.dd\_	.	4BBB/ 4BB	.	8r	.	8gn/)	8ggn\)	.	4.BB/	2.d/	.
!	!	!	!	!	!	!	!LO:SIC:v:s=32Gn/ 32gn	!	!	!	!	!	!	!	!	!	!	!	!	!
.	.	.	.	.	32D/	.	32G#/ 32g#	.	.	.	.	.	.	.	.	.	.	.	.	.
!	!	!	!	!	!	!	!LO:SIC:v:s=32Gn/ 32gn	!	!	!	!	!	!	!	!	!	!	!	!	!
.	.	.	.	.	32D/	.	32G#/ 32g#	.	.	.	.	.	.	.	.	.	.	.	.	.
!	!	!	!	!	!	!	!LO:SIC:v:s=32Gn/ 32gn	!	!	!	!	!	!	!	!	!	!	!	!	!
.	.	.	.	.	32D/	.	32G#/ 32g#	.	.	.	.	.	.	.	.	.	.	.	.	.
!	!	!	!	!	!	!	!LO:SIC:v:s=32Gn/ 32gn	!	!	!	!	!	!	!	!	!	!	!	!	!
.	.	.	.	.	32D/	.	32G#/ 32g#	.	.	.	.	.	8D|>\L 8Gn	.	8r	8r	.	.	.	.
!	!	!	!	!	!	!	!LO:SIC:v:s=32Gn/ 32gn	!	!	!	!	!	!	!	!	!	!	!	!	!
.	.	.	.	.	32D/	.	32G#/ 32g#	.	.	.	.	.	.	.	.	.	.	.	.	.
!	!	!	!	!	!	!	!LO:SIC:v:s=32Gn/ 32gn	!	!	!	!	!	!	!	!	!	!	!	!	!
.	.	.	.	.	32D/	.	32G#/ 32g#	.	.	.	.	.	.	.	.	.	.	.	.	.
!	!	!	!	!	!	!	!LO:SIC:v:s=32Gn/ 32gn	!	!	!	!	!	!	!	!	!	!	!	!	!
.	.	.	.	.	32D/	.	32G#/ 32g#	.	.	.	.	.	.	.	.	.	.	.	.	.
*	*	*	*	*	*	*	*	*	*	*	*	*	*	*	*	*Xped	*	*	*	*
!	!	!	!	!	!	!	!LO:SIC:v:s=32Gn/ 32gn	!	!	!	!	!	!	!	!	!	!	!	!	!
8r	.	.	.	.	32D/	.	32G#/ 32g#	.	.	.	8BBB/ 8BB	.	8G|>\J 8B 8d	.	8g/ 8dd	8dd|>\ 8gg	.	.	.	.
!	!	!	!	!	!	!	!LO:SIC:v:s=32Gn/ 32gn	!	!	!	!	!	!	!	!	!	!	!	!	!
.	.	.	.	.	32D/	.	32G#/ 32g#	.	.	.	.	.	.	.	.	.	.	.	.	.
!	!	!	!	!	!	!	!LO:SIC:v:s=32Gn/ 32gn	!	!	!	!	!	!	!	!	!	!	!	!	!
.	.	.	.	.	32D/	.	32G#/ 32g#	.	.	.	.	.	.	.	.	.	.	.	.	.
!	!	!	!	!	!	!	!LO:SIC:v:s=32Gn/ 32gn	!	!	!	!	!	!	!	!	!	!	!	!	!
.	.	.	.	.	32D/	.	32G#/JJJ 32g#	.	.	.	.	.	.	.	.	.	.	.	.	.
*	*	*	*	*	*	*	*	*	*	*	*	*	*	*	*	*ped	*	*	*	*
8AA/L	.	.	.	.	32D/	.	32A/LLL 32f#X	.	.	.	8AAA/L 8AA	.	8r	.	4f#/ 4dd	(4dd^\ 4ff#	.	8AA/L	.	.
.	.	.	.	.	32D/	.	32A/ 32f#	.	.	.	.	.	.	.	.	.	.	.	.	.
.	.	.	.	.	32D/	.	32A/ 32f#	.	.	.	.	.	.	.	.	.	.	.	.	.
.	.	.	.	.	32D/	.	32A/ 32f#	.	.	.	.	.	.	.	.	.	.	.	.	.
!LO:SIC:v:s=8GGn/	!	!	!	!	!	!	!	!	!	!	!LO:SIC:v:s=8GGGn/ 8GGn	!	!	!	!	!	!	!	!	!
8GG#/	.	.	.	.	32D/	.	32A/ 32f#	.	.	.	8GGG#/ 8GG#	.	8D|>\L 8A	.	.	.	.	8GG#/	.	.
.	.	.	.	.	32D/	.	32A/ 32f#	.	.	.	.	.	.	.	.	.	.	.	.	.
.	.	.	.	.	32D/	.	32A/ 32f#	.	.	.	.	.	.	.	.	.	.	.	.	.
.	.	.	.	.	32D/	.	32A/ 32f#	.	.	.	.	.	.	.	.	.	.	.	.	.
8AA/J	.	.	.	.	32D/	.	32A/ 32f#	.	.	.	8AAA/J 8AA	.	8A|>\J 8d	.	8f#/ 8a 8dd	8dd\) 8aa	.	8AA/J	.	.
*	*	*	*	*	*	*	*	*	*	*	*	*	*	*	*	*Xped	*	*	*	*
.	.	.	.	.	32D/	.	32A/ 32f#	.	.	.	.	.	.	.	.	.	.	.	.	.
.	.	.	.	.	32D/	.	32A/ 32f#	.	.	.	.	.	.	.	.	.	.	.	.	.
.	.	.	.	.	32D/JJJ	.	32A/JJJ 32f#	.	.	.	.	.	.	.	.	.	.	.	.	.
=36	=36	=36	=36	=36	=36	=36	=36	=36	=36	=36	=36	=36	=36	=36	=36	=36	=36	=36	=36	=36
*	*	*	*	*	*	*	*	*	*	*	*	*	*	*	*	*	*	*	*^	*
*	*	*	*	*	*rep	*	*	*	*	*	*	*	*	*	*	*ped	*	*	*	*	*
!	!	!	!	!	!	!	!	!	!	!	!	!	!	!	!LO:SIC:v:n=2:s=4gn	!	!	!	!	!	!
4BB/	.	2.ryy	4.d\_	.	32D/LLL	.	32Gn/LLL 32gn	.	4.dd\_	.	4.BBB/ 4.BB	.	8r	.	4g#/ 4dd	[4.ggn\	.	4.BB/	2.r	2.d/	.
.	.	.	.	.	32D/	.	32G/ 32g	.	.	.	.	.	.	.	.	.	.	.	.	.	.
.	.	.	.	.	32D/	.	32G/ 32g	.	.	.	.	.	.	.	.	.	.	.	.	.	.
.	.	.	.	.	32D/	.	32G/ 32g	.	.	.	.	.	.	.	.	.	.	.	.	.	.
.	.	.	.	.	32D/	.	32G/ 32g	.	.	.	.	.	8D\L 8Gn	.	.	.	.	.	.	.	.
.	.	.	.	.	32D/	.	32G/ 32g	.	.	.	.	.	.	.	.	.	.	.	.	.	.
.	.	.	.	.	32D/	.	32G/ 32g	.	.	.	.	.	.	.	.	.	.	.	.	.	.
.	.	.	.	.	32D/	.	32G/ 32g	.	.	.	.	.	.	.	.	.	.	.	.	.	.
!	!	!	!	!	!	!	!	!	!	!	!	!	!	!	!LO:SIC:v:n=2:s=8gn	!	!	!	!	!	!
8r	.	.	.	.	32D/	.	32G/ 32g	.	.	.	.	.	8G\J 8d	.	8g#/ 8dd	.	.	.	.	.	.
.	.	.	.	.	32D/	.	32G/ 32g	.	.	.	.	.	.	.	.	.	.	.	.	.	.
.	.	.	.	.	32D/	.	32G/ 32g	.	.	.	.	.	.	.	.	.	.	.	.	.	.
.	.	.	.	.	32D/	.	32G/JJJ 32g	.	.	.	.	.	.	.	.	.	.	.	.	.	.
*	*	*	*	*	*	*	*	*	*	*	*	*	*rep	*	*	*	*	*	*	*	*
!	!	!	!	!	!	!	!	!	!	!	!	!	!	!LO:DY:t=piu f.	!LO:SIC:v:n=2:s=4gn	!LO:TX:b:t=tc.	!	!LO:N:vis=4	!	!	!
4D\	.	.	4d\]	.	32D/	<	32G/LLL 32e	<	4dd\]	.	4.DD/ 4.D	.	8r	f	4g#/ 4dd	4gg\]	.	4.D\	.	.	.
.	.	.	.	.	32D/	.	32G/ 32e	.	.	.	.	.	.	.	.	.	.	.	.	.	.
.	.	.	.	.	32D/	.	32G/ 32e	.	.	.	.	.	.	.	.	.	.	.	.	.	.
.	.	.	.	.	32D/	.	32G/ 32e	.	.	.	.	.	.	.	.	.	.	.	.	.	.
.	.	.	.	.	32D/	.	32G/ 32e	.	.	.	.	.	8D\L 8G	.	.	.	.	.	.	.	.
.	.	.	.	.	32D/	.	32G/ 32e	.	.	.	.	.	.	.	.	.	.	.	.	.	.
.	.	.	.	.	32D/	.	32G/ 32e	.	.	.	.	.	.	.	.	.	.	.	.	.	.
.	.	.	.	.	32D/	.	32G/ 32e	.	.	.	.	.	.	.	.	.	.	.	.	.	.
!	!	!	!	!LO:DY:t=piu f.	!	!	!	!	!	!LO:DY:t=piu f.	!	!	!	!	!	!LO:TX:b:t=cantabile	!	!	!	!	!
8r	.	.	16d^\LL	f	32D/	.	32G/ 32e	.	(16dd^\LL	f	.	.	8G\J 8d	.	16dd/LL	(16ddd^\LL	.	.	.	.	.
.	.	.	.	.	32D/	.	32G/ 32e	.	.	.	.	.	.	.	.	.	.	.	.	.	.
.	.	.	16B\JJ	.	32D/	.	32G/ 32e	.	16b\JJ	.	.	.	.	.	16b/JJ	16bb\JJ	.	.	.	.	.
.	.	.	.	.	32D/JJJ	[[	32G/JJJ 32e	[[	.	.	.	.	.	.	.	.	.	.	.	.	.
*	*	*	*	*	*Xrep	*	*	*	*	*	*	*	*Xrep	*	*	*	*	*	*	*	*
*	*	*	*	*	*	*	*	*	*	*	*	*	*	*	*	*	*	*	*v	*v	*
=37	=37	=37	=37	=37	=37	=37	=37	=37	=37	=37	=37	=37	=37	=37	=37	=37	=37	=37	=37	=37
*	*	*	*	*	*rep	*	*	*	*	*	*	*	*rep	*	*	*	*	*	*	*
!	!LO:DY:rj:color=blue	!	!LO:TX:b:i:t=cantabile	!	!	!	!	!	!LO:TX:b:t=cantabile	!	!	!	!	!	!	!	!	!	!LO:SIC:v:s=2.Gn/	!
4E^\	sf	2.ryy	4Gn\	.	32D/LLL	.	32Gn/LLL 32gn	.	4gn/)	.	4.EE^>/ 4.E	.	8r	.	8gn/	8ggn\)	.	4.E\	[2.G#/	.
.	.	.	.	.	32D/	.	32G/ 32g	.	.	.	.	.	.	.	.	.	.	.	.	.
.	.	.	.	.	32D/	.	32G/ 32g	.	.	.	.	.	.	.	.	.	.	.	.	.
.	.	.	.	.	32D/	.	32G/ 32g	.	.	.	.	.	.	.	.	.	.	.	.	.
.	.	.	.	.	32D/	.	32G/ 32g	.	.	.	.	.	8D\L 8Gn	.	8r	8r	.	.	.	.
.	.	.	.	.	32D/	.	32G/ 32g	.	.	.	.	.	.	.	.	.	.	.	.	.
.	.	.	.	.	32D/	.	32G/ 32g	.	.	.	.	.	.	.	.	.	.	.	.	.
!	!	!	!	!	!	!	!	!LO:HP:a	!	!	!	!	!	!	!	!	!	!	!	!
.	.	.	.	.	32D/	.	32G/ 32g	<	.	.	.	.	.	.	.	.	.	.	.	.
8r	.	.	8gn\	.	32D/	.	32G/ 32g	.	8ggn\	.	.	.	8G\J 8d	.	8g/	8dd\ 8gg	.	.	.	.
.	.	.	.	.	32D/	.	32G/ 32g	.	.	.	.	.	.	.	.	.	.	.	.	.
.	.	.	.	.	32D/	.	32G/ 32g	.	.	.	.	.	.	.	.	.	.	.	.	.
.	.	.	.	.	32D/	.	32G/JJJ 32g	.	.	.	.	.	.	.	.	.	.	.	.	.
*	*	*	*	*	*	*	*	*	*	*	*	*	*Xrep	*	*	*	*	*	*	*
*	*	*	*	*	*	*	*	*	*	*	*	*	*rep	*	*	*	*	*	*	*
!LO:TX:t=P:problem:stem.color=blue	!	!	!	!	!	!	!	!	!	!	!	!	!	!	!	!	!	!	!	!
8D\	.	.	(4g^\	.	32D/	<	32B/LLL 32d	.	(4gg^\	.	4DD/ 4D	.	8r	.	(4g^/	(4dd^\ 4gg	.	4D\	.	.
*	*	*	*	*	*	*	*	*	*	*	*	*	*	*	*	*Xped	*	*	*	*
.	.	.	.	.	32D/	.	32B/ 32d	.	.	.	.	.	.	.	.	.	.	.	.	.
.	.	.	.	.	32D/	.	32B/ 32d	.	.	.	.	.	.	.	.	.	.	.	.	.
.	.	.	.	.	32D/	.	32B/ 32d	.	.	.	.	.	.	.	.	.	.	.	.	.
8r@	.	.	.	.	32D/	.	32B/ 32d	.	.	.	.	.	8D\L 8G	.	.	.	.	.	.	.
.	.	.	.	.	32D/	.	32B/ 32d	.	.	.	.	.	.	.	.	.	.	.	.	.
.	.	.	.	.	32D/	.	32B/ 32d	.	.	.	.	.	.	.	.	.	.	.	.	.
.	.	.	.	.	32D/	.	32B/ 32d	.	.	.	.	.	.	.	.	.	.	.	.	.
8Gn\	.	.	8f#\)	.	32D/	.	32B/ 32d	.	8ff#\)	.	8GGGn/	.	8G\J 8d	.	8f#/)	8dd\) 8ff#	.	8GGn/	.	.
.	.	.	.	.	32D/	.	32B/ 32d	.	.	.	.	.	.	.	.	.	.	.	.	.
.	.	.	.	.	32D/	.	32B/ 32d	.	.	.	.	.	.	.	.	.	.	.	.	.
.	.	.	.	.	32D/JJJ	[[	32B/JJJ 32d	[[	.	.	.	.	.	.	.	.	.	.	.	.
*	*	*	*	*	*Xrep	*	*	*	*	*	*	*	*Xrep	*	*	*	*	*	*	*
=38	=38	=38	=38	=38	=38	=38	=38	=38	=38	=38	=38	=38	=38	=38	=38	=38	=38	=38	=38	=38
*	*	*	*	*	*	*	*	*	*	*	*	*	*^	*	*	*	*	*	*	*
*	*	*	*	*	*	*	*	*	*	*	*	*	*	*	*	*	*ped	*	*	*	*
!	!	!	!	!	!	!LO:DY:rj	!	!	!	!	!	!	!	!	!	!	!	!	!	!LO:SIC:v:s=4.Gn/	!
4B\	.	2.ryy	(4.f#\	.	32B/LLL	sf	32d/LLL 32b	sf	(4.ff#^\	.	[4.BB^/	.	4.G#^/	8r	.	(4.f#^/	(4.dd^\ 4.ff#	.	[4.BB/	4.G#/]	.
.	.	.	.	.	32B/	.	32d/ 32b	.	.	.	.	.	.	.	.	.	.	.	.	.	.
.	.	.	.	.	32B/	.	32d/ 32b	.	.	.	.	.	.	.	.	.	.	.	.	.	.
.	.	.	.	.	32B/	.	32d/ 32b	.	.	.	.	.	.	.	.	.	.	.	.	.	.
.	.	.	.	.	32B/	.	32d/ 32b	.	.	.	.	.	.	8B|>\L 8d	.	.	.	.	.	.	.
.	.	.	.	.	32B/	.	32d/ 32b	.	.	.	.	.	.	.	.	.	.	.	.	.	.
.	.	.	.	.	32B/	.	32d/ 32b	.	.	.	.	.	.	.	.	.	.	.	.	.	.
.	.	.	.	.	32B/	.	32d/ 32b	.	.	.	.	.	.	.	.	.	.	.	.	.	.
8r	.	.	.	.	32B/	.	32d/ 32b	.	.	.	.	.	.	8D|>\J 8B	.	.	.	.	.	.	.
.	.	.	.	.	32B/	.	32d/ 32b	.	.	.	.	.	.	.	.	.	.	.	.	.	.
.	.	.	.	.	32B/	.	32d/ 32b	.	.	.	.	.	.	.	.	.	.	.	.	.	.
.	.	.	.	.	32B/	.	32d/ 32b	.	.	.	.	.	.	.	.	.	.	.	.	.	.
*	*	*	*	*	*	*	*	*	*	*	*	*	*	*	*	*	*Xped	*	*	*	*
!LO:TX:b:t=arco.	!	!	!	!	!	!	!	!	!	!	!	!	!	!	!	!	!	!	!	!	!
8B\L	.	.	4.e#X\)	.	32B/	>	32d/ 32b	>	8.ee#X@\L	.	8BB/L]	.	8G#X|>\L 8B	4ryy	.	8.e#X/L)	8.ee#X\L)	<	8BB/L]	4.G#X/	.
.	.	.	.	.	32B/	.	32d/ 32b	.	.	.	.	.	.	.	.	.	.	.	.	.	.
.	.	.	.	.	32B/	.	32d/ 32b	.	.	.	.	.	.	.	.	.	.	.	.	.	.
.	.	.	.	.	32B/	.	32d/ 32b	.	.	.	.	.	.	.	.	.	.	.	.	.	.
8G#X\	.	.	.	.	32B/	.	32d/ 32b	.	.	.	8GG#X/	.	8G#X|>\	.	.	.	.	.	8GG#X/	.	.
.	.	.	.	.	32B/	.	32d/ 32b	.	.	.	.	.	.	.	.	.	.	.	.	.	.
!	!	!	!	!	!	!	!	!	!LO:TX:b:t=divisi:color=blue	!	!	!	!	!	!	!	!LO:ACC:color=blue	!	!	!	!
.	.	.	.	.	32B/	.	32d/ 32b	.	16b\L 16gg#X	.	.	.	.	.	.	16g#X/L	16gg#X\L	.	.	.	.
.	.	.	.	.	32B/	.	32d/ 32b	.	.	.	.	.	.	.	.	.	.	.	.	.	.
8F#\J	.	.	.	.	32B/	.	32d/ 32b	.	16b\ 16bb	.	8FF#/J	.	8F#|>\J	8ryy	.	16b/	16aa\	.	8FF#/J	.	.
.	.	.	.	.	32B/	.	32d/ 32b	.	.	.	.	.	.	.	.	.	.	.	.	.	.
.	.	.	.	.	32B/	.	32d/ 32b	.	16dd\JJ) 16ddd	.	.	.	.	.	.	16dd/JJ	16bb\JJ	[[	.	.	.
.	.	.	.	.	32B/JJJ	]]	32d/JJJ 32b	]]	.	.	.	.	.	.	.	.	.	.	.	.	.
*	*	*	*	*	*Xtremolo	*	*Xtremolo	*	*	*	*	*	*	*	*	*	*	*	*	*	*
*	*	*	*	*	*	*	*	*	*	*	*	*	*v	*v	*	*	*	*	*	*	*
!!LO:PB:g=original
=39||	=39||	=39||	=39||	=39||	=39||	=39||	=39||	=39||	=39||	=39||	=39||	=39||	=39||	=39||	=39||	=39||	=39||	=39||	=39||	=39||
*k[f#c#g#d#a#e#]	*	*k[f#c#g#d#a#e#]	*k[f#c#g#d#a#e#]	*	*k[f#c#g#d#a#e#]	*	*k[f#c#g#d#a#e#]	*	*k[f#c#g#d#a#e#]	*	*k[f#c#g#d#a#e#]	*	*k[f#c#g#d#a#e#]	*	*k[f#c#g#d#a#e#]	*k[f#c#g#d#a#e#]	*	*k[f#c#g#d#a#e#]	*k[f#c#g#d#a#e#]	*
*	*	*	*	*	*	*	*	*	*8va	*	*	*	*	*	*	*	*	*	*	*
*	*	*	*	*	*	*	*	*	*	*	*	*	*	*	*	*	*	*	*^	*
*	*	*	*	*	*	*	*	*	*	*	*	*	*ped	*	*	*ped	*	*	*	*	*
!	!	!	!	!	!	!	!	!	!LO:TX:b:t=divisi	!	!	!	!	!	!	!	!	!	!LO:TX:t=P:problem:kolejność znaków f# cc# g# dd# a# ee#	!	!
!LO:TX:t=P:problem:znaki przy kluczu w formie powtórzenia	!	!LO:TX:t=P:problem:znaki przy kluczu w formie powtórzenia	!LO:TX:t=P:problem:znaki przy kluczu w formie powtórzenia	!	!LO:TX:t=P:problem:znaki przy kluczu w formie powtórzenia	!	!LO:TX:t=P:problem:znaki przy kluczu w formie powtórzenia	!	!LO:TX:t=P:problem:kolejność znaków f# cc# g# dd# a# ee#	!	!LO:TX:t=P:problem:znaki przy kluczu w formie powtórzenia	!	!LO:TX:t=P:problem:znaki przy kluczu w formie powtórzenia	!	!LO:TX:t=P:problem:znaki przy kluczu w formie powtórzenia	!LO:TX:t=P:problem:kolejność znaków f# cc# g# dd# a# ee#	!	!LO:TX:t=P:problem:kolejność znaków F# C# G# D# A# E#	!LO:N:vis=2	!	!
8E#\	.	4E#\	4.g#\	.	8B/	.	8g#/L	.	4ccc#\	.	8EE#/ 8E#X	.	16G#\LL	.	4cc#\	(4ccc#^\	.	[2.c#\	[2.cc#/	2.g#\ 2.b	.
.	.	.	.	.	.	.	.	.	.	.	.	.	16B\	.	.	.	.	.	.	.	.
8r	.	.	.	.	8B/L	.	8g#/	.	.	.	8r	.	16c#\	.	.	.	.	.	.	.	.
.	.	.	.	.	.	.	.	.	.	.	.	.	16B\	.	.	.	.	.	.	.	.
8r	.	8r	.	.	[8B/J	.	[>8g#/J	.	8gg#/	.	8r	.	16G#\	.	8g#/ 8cc#	8gg#\)	.	.	.	.	.
.	.	.	.	.	.	.	.	.	.	.	.	.	16B\JJ	.	.	.	.	.	.	.	.
*	*	*	*	*	*	*	*	*	*	*	*	*	*Xped	*	*	*Xped	*	*	*	*	*
*	*	*	*	*	*	*	*	*	*	*	*	*	*rep	*	*	*	*	*	*	*	*
8C#/	.	4r	[4c#\	.	8B/L]	.	8g#/L]	.	(8gg#/L	.	8CC#/ 8C#	.	16G#\LL	.	8g#/L 8cc#	(8gg#\L	.	.	.	.	.
.	.	.	.	.	.	.	.	.	.	.	.	.	16B\	.	.	.	.	.	.	.	.
8r	.	.	.	.	8B/	.	8g#/	.	8aa#/)	.	8r	.	16c#\	.	8a#/	8aa#\)	.	.	.	.	.
.	.	.	.	.	.	.	.	.	.	.	.	.	16B\	.	.	.	.	.	.	.	.
8r	.	8r	16c#\LL]	.	(8B/J	.	(>8g#/J	.	8bb/J	.	8r	.	16G#\	.	8b/J	8bb\J	.	.	.	.	.
.	.	.	16d#\JJ	.	.	.	.	.	.	.	.	.	16B\JJ	.	.	.	.	.	.	.	.
*	*	*	*	*	*	*	*	*	*	*	*	*	*Xrep	*	*	*	*	*	*	*	*
=40	=40	=40	=40	=40	=40	=40	=40	=40	=40	=40	=40	=40	=40	=40	=40	=40	=40	=40	=40	=40	=40
.	.	4qqBB/	.	.	.	.	.	.	.	.	.	.	.	.	.	.	.	.	.	.	.
8F#\	.	4E#\	(4.d#^\	.	8A#/L)	.	8f#/L)	.	(4bb^/	.	8FF#/	.	16F#\LL	.	(4b/	(4bb^\	.	2.c#\_	2.cc#/]	2.f#\ 2.a#	.
.	.	.	.	.	.	.	.	.	.	.	.	.	16A#\	.	.	.	.	.	.	.	.
8r	.	.	.	.	8A#/	.	8f#/	.	.	.	8r	.	16c#\	.	.	.	.	.	.	.	.
.	.	.	.	.	.	.	.	.	.	.	.	.	16A#\	.	.	.	.	.	.	.	.
8r	.	8r	.	.	[8A#/J	.	[>8f#/J	.	8aa#/	.	8r	.	16F#\	.	8a#/) 8cc#	8aa#\	.	.	.	.	.
.	.	.	.	.	.	.	.	.	.	.	.	.	16A#\JJ	.	.	.	.	.	.	.	.
.	.	4qqBB/	.	.	.	.	.	.	.	.	.	.	.	.	.	.	.	.	.	.	.
*	*	*	*	*	*	*	*	*	*	*	*	*	*rep	*	*	*	*	*	*	*	*
8C#/	.	4C#/	4c#\)	.	8A#/L]	.	8f#/L]	.	8ccc#\)	.	8CC#/ 8C#	.	16F#\LL	.	8a#/ 8cc#	8ccc#\)	.	.	.	.	.
.	.	.	.	.	.	.	.	.	.	.	.	.	16A#\	.	.	.	.	.	.	.	.
8r	.	.	.	.	8c#/	.	8a#/	.	8r	.	8r	.	16c#\	.	8r	8r	.	.	.	.	.
.	.	.	.	.	.	.	.	.	.	.	.	.	16A#\	.	.	.	.	.	.	.	.
8r	.	8r	8c#\	.	8c#/J	.	(>8a#/J	.	8ddd#\	.	8r	.	16F#\	.	8dd#\	8ddd#\	.	.	.	.	.
.	.	.	.	.	.	.	.	.	.	.	.	.	16A#\JJ	.	.	.	.	.	.	.	.
*	*	*	*	*	*	*	*	*	*	*	*	*	*Xrep	*	*	*	*	*	*	*	*
=41	=41	=41	=41	=41	=41	=41	=41	=41	=41	=41	=41	=41	=41	=41	=41	=41	=41	=41	=41	=41	=41
*	*	*	*	*	*	*	*	*	*	*	*	*	*ped	*	*	*ped	*	*	*	*	*
!	!	!	!	!	!	!	!	!	!	!	!	!	!	!	!	!	!	!	!LO:N:vis=4.	!	!
8E#\	.	4E#\	(8B^\L	.	8B/L	.	8g#/L)	.	(4ddd#^\	.	8EE#/ 8E#	.	16G#X\LL	.	(4dd#/	(4ddd#^\	.	2.c#\_	(4dd#/	[4.e#^\ [4.g# 4.b	.
.	.	.	.	.	.	.	.	.	.	.	.	.	16B\	.	.	.	.	.	.	.	.
8r	.	.	8G#\)	.	8B/	.	8g#/	.	.	.	8r	.	16c#\	.	.	.	.	.	.	.	.
.	.	.	.	.	.	.	.	.	.	.	.	.	16B\	.	.	.	.	.	.	.	.
8r	.	8r	8E#X\J	.	8B/J	.	8g#/J	.	8gg#/)	.	8r	.	16G#\	.	8g#/) 8cc#	8gg#\)	.	.	8cc#/)	.	.
.	.	.	.	.	.	.	.	.	.	.	.	.	16B\JJ	.	.	.	.	.	.	.	.
*	*	*	*	*	*	*	*	*	*	*	*	*	*Xped	*	*	*	*	*	*	*	*
*	*	*rep	*	*	*	*	*	*	*	*	*	*	*rep	*	*	*Xped	*	*	*	*	*
8C#/	.	4E#\	4C#/	.	8c#/L	.	(8e#/L	.	(8gg#/L	.	8CC#/ 8C#	.	16G#X\LL	.	8g#/L 8cc#	8gg#\L	.	.	4.cc#/	4.e#\] 4.g#]	.
.	.	.	.	.	.	.	.	.	.	.	.	.	16B\	.	.	.	.	.	.	.	.
8r	.	.	.	.	8c#/	.	8f#/)	.	8aa#/)	.	8r	.	16c#\	.	8a#/	8aa#\	.	.	.	.	.
.	.	.	.	.	.	.	.	.	.	.	.	.	16B\	.	.	.	.	.	.	.	.
8r	.	8r	8c#\	.	[8c#/J	.	8g#/J	.	8bb/J	.	8r	.	16G#\	.	8b/J 8cc#	8bb\J	.	.	.	.	.
.	.	.	.	.	.	.	.	.	.	.	.	.	16B\JJ	.	.	.	.	.	.	.	.
*	*	*Xrep	*	*	*	*	*	*	*	*	*	*	*Xrep	*	*	*	*	*	*	*	*
!!LO:TX:t=P:problem:barlines.color=red
=42	=42	=42	=42	=42	=42	=42	=42	=42	=42	=42	=42	=42	=42	=42	=42	=42	=42	=42	=42	=42	=42
*	*	*rep	*	*	*	*	*	*	*	*	*	*	*	*	*	*	*	*	*	*	*
!	!	!	!	!	!	!	!LO:TX:t=P:problem:mixed beam	!	!	!	!	!	!	!	!	!	!	!LO:N:vis=2	!	!	!
8F#\	.	4E#\	4.d#\	.	8c#/L]	.	8g#/L	.	4.bb^/	.	8FF#/	.	16F#\LL	.	(4b/ 4cc#	(4.bb\	.	2.c#\]	2.f#/ 2.cc#	4.g#\	.
.	.	.	.	.	.	.	.	.	.	.	.	.	16A#\	.	.	.	.	.	.	.	.
!	!	!	!	!	!	!	!	!	!	!	!LO:TX:t=P:problem:brak pauz 8r	!	!	!	!	!	!	!	!	!	!
8r	.	.	.	.	8c#/	.	8g#/	.	.	.	8ryy	.	16c#\	.	.	.	.	.	.	.	.
.	.	.	.	.	.	.	.	.	.	.	.	.	16A#\	.	.	.	.	.	.	.	.
8r	.	8r	.	.	[8c#/J	.	(8g#/J	.	.	.	8ryy	.	16F#\	.	8g#/) 8cc#	.	.	.	.	.	.
.	.	.	.	.	.	.	.	.	.	.	.	.	16A#\JJ	.	.	.	.	.	.	.	.
8C#/	.	4E#\	4c#\	.	8c#/L]	.	8f#/L)	.	8aa#/	.	8FF#/L	.	16F#\LL	.	8a#/ 8cc#	8aa#\)	.	.	.	4.a#\	.
.	.	.	.	.	.	.	.	.	.	.	.	.	16A#\	.	.	.	.	.	.	.	.
8r	.	.	.	.	8c#/	.	8f#/	.	8r	.	8CC#/ 8C#	.	16c#\	.	8r	8r	.	.	.	.	.
.	.	.	.	.	.	.	.	.	.	.	.	.	16A#\	.	.	.	.	.	.	.	.
8r	.	8r	8c#\	.	8c#/J	.	8f#/J	.	(16ccc#^/LL	.	8BBB/J 8BB	.	16F#\	.	16cc#\LL	16ccc#\LL	.	.	.	.	.
.	.	.	.	.	.	.	.	.	16aa#/JJ)	.	.	.	16C#\JJ	.	16a#\JJ	16aa#\JJ	.	.	.	.	.
*	*	*Xrep	*	*	*	*	*	*	*	*	*	*	*	*	*	*	*	*	*	*	*
*	*	*	*	*	*	*	*	*	*	*	*	*	*	*	*	*	*	*	*v	*v	*
!!LO:PB:g=original
=43	=43	=43	=43	=43	=43	=43	=43	=43	=43	=43	=43	=43	=43	=43	=43	=43	=43	=43	=43	=43
*	*	*	*	*	*	*	*	*	*	*	*	*	*	*	*	*	*	*^	*	*
*	*	*	*	*	*tremolo	*	*tremolo	*	*	*	*	*	*	*	*	*	*	*	*	*	*
!	!	!	!	!	!	!	!	!	!	!	!	!	!LO:TX:b:t=(x):color=red	!	!	!	!	!	!	!LO:N:vis=2	!
8AA#/	.	2.ryy	[4.c#\	.	16F#/LL	.	(16c#/LL	.	8ff#/	.	8AAA#/	.	8AA#/	.	8f#/	8ff#\	.	2.F#\	2.AA#\	2.c#/ 2.f#	.
.	.	.	.	.	16F#/	.	16f#/	.	.	.	.	.	.	.	.	.	.	.	.	.	.
8r	.	.	.	.	16F#/	.	16c#/	.	8r	.	8r	.	8FF#|</L 8C#	.	8r	8r	.	.	.	.	.
.	.	.	.	.	16F#/	.	16f#/	.	.	.	.	.	.	.	.	.	.	.	.	.	.
8r	.	.	.	.	16F#/	.	16c#/	.	8ff#/	.	8r	.	8C#|</J 8F#	.	8c#/ 8f#	8cc#\ 8ff#	.	.	.	.	.
.	.	.	.	.	16F#/	.	16f#/	.	.	.	.	.	.	.	.	.	.	.	.	.	.
*	*	*	*	*	*	*	*	*	*	*	*rep	*	*rep	*	*	*	*	*	*	*	*
!LO:TX:b:t=pizzi	!	!	!	!	!	!	!	!	!	!	!	!	!	!	!	!	!	!	!	!	!
4AA#/	.	.	4c#\]	.	16F#/	.	16c#/	.	4ff#^/	.	8AAA#/	.	8AA#/	.	(>4c#^/ 4f#	(4cc#^\ 4ff#	.	.	.	.	.
.	.	.	.	.	16F#/	.	16f#/	.	.	.	.	.	.	.	.	.	.	.	.	.	.
.	.	.	.	.	16F#/	.	16c#/	.	.	.	8r	.	8FF#|</L 8C#	.	.	.	.	.	.	.	.
.	.	.	.	.	16F#/	.	16f#/	.	.	.	.	.	.	.	.	.	.	.	.	.	.
8r	.	.	8c#\	.	16F#/	.	16c#/	.	8ee#/	.	8r	.	8C#|</J 8F#	.	8c#/) 8e#	8cc#\) 8ee#	.	.	.	.	.
.	.	.	.	.	16F#/JJ	.	16f#/JJ	.	.	.	.	.	.	.	.	.	.	.	.	.	.
*	*	*	*	*	*	*	*	*	*	*	*Xrep	*	*Xrep	*	*	*	*	*	*	*	*
=44	=44	=44	=44	=44	=44	=44	=44	=44	=44	=44	=44	=44	=44	=44	=44	=44	=44	=44	=44	=44	=44
*	*	*	*	*	*	*	*	*	*	*	*	*	*	*	*	*	*	*	*	*^	*
4BB/	.	2.ryy	4.c#^\	.	16F#/LL	.	16c#/LL	.	4.ee#^/	.	8BBB/	.	8BB/	.	((4.c#^/ 4.e#	(>(>4.cc#^\ 4.ee#	.	2.F#/	[2.BB\ 2.F#	2.f#/	4.c#\	.
.	.	.	.	.	16F#/	.	16f#/	.	.	.	.	.	.	.	.	.	.	.	.	.	.	.
.	.	.	.	.	16F#/	.	16c#/	.	.	.	8r	.	8FF#|</L 8C#	.	.	.	.	.	.	.	.	.
.	.	.	.	.	16F#/	.	16f#/	.	.	.	.	.	.	.	.	.	.	.	.	.	.	.
8r	.	.	.	.	16F#/	.	16c#/	.	.	.	8r	.	8C#|</J 8F#	.	.	.	.	.	.	.	.	.
.	.	.	.	.	16F#/	.	16f#/JJ)	.	.	.	.	.	.	.	.	.	.	.	.	.	.	.
4BB/	.	.	4B\	.	16F#/	.	(16d#/LL	.	8dd#/	.	8BBB/	.	8BB/	.	8B/)) 8d#	8b\)) 8dd#	.	.	.	.	[4.d#\	.
.	.	.	.	.	16F#/	.	16f#/	.	.	.	.	.	.	.	.	.	.	.	.	.	.	.
.	.	.	.	.	16F#/	.	16d#/	.	8r	.	8r	.	8FF#|</L 8D#	.	8r	8r	.	.	.	.	.	.
.	.	.	.	.	16F#/	.	16f#/	.	.	.	.	.	.	.	.	.	.	.	.	.	.	.
8r	.	.	8d#\	.	16F#/	.	16d#/	.	(16ddd#^\LL	.	8r	.	8D#|</J 8F#	.	(16dd#\LL	(16ddd#\LL	.	.	.	.	.	.
.	.	.	.	.	16F#/JJ	.	16f#/JJ)	.	16bb\JJ)	.	.	.	.	.	16b\JJ	16bb\JJ	.	.	.	.	.	.
=45	=45	=45	=45	=45	=45	=45	=45	=45	=45	=45	=45	=45	=45	=45	=45	=45	=45	=45	=45	=45	=45	=45
4BB/	.	2.ryy	[4.d#\	.	16G#/LL	.	(16d#/LL	.	8gg#/	.	8BBB/	.	8BB/	.	8g#/)	8gg#\)	.	[<2.G#\	2.BB\]	[2.g#/	2.d#\]	.
.	.	.	.	.	16G#/	.	16g#/	.	.	.	.	.	.	.	.	.	.	.	.	.	.	.
.	.	.	.	.	16G#/	.	16d#/	.	8r	.	8r	.	8GG#|</L 8D#	.	8r	8r	.	.	.	.	.	.
.	.	.	.	.	16G#/	.	16g#/	.	.	.	.	.	.	.	.	.	.	.	.	.	.	.
8r	.	.	.	.	16G#/	.	16d#/	.	8gg#/	.	8r	.	8D#|</J 8G#	.	8d#/ 8g#	8dd#'\ 8gg#	.	.	.	.	.	.
.	.	.	.	.	16G#/	.	16g#/	.	.	.	.	.	.	.	.	.	.	.	.	.	.	.
*	*	*	*	*	*	*	*	*	*	*	*rep	*	*rep	*	*	*	*	*	*	*	*	*
4BB/	.	.	4d#\]	.	16G#/	.	16d#/	.	4gg#^/	.	8BBB/	.	8BB/	.	(>4d#^/ 4g#	(4dd#^\ 4gg#	.	.	.	.	.	.
.	.	.	.	.	16G#/	.	16g#/	.	.	.	.	.	.	.	.	.	.	.	.	.	.	.
.	.	.	.	.	16G#/	.	16d#/	.	.	.	8r	.	8GG#|</L 8D#	.	.	.	.	.	.	.	.	.
.	.	.	.	.	16G#/	.	16g#/	.	.	.	.	.	.	.	.	.	.	.	.	.	.	.
8r	.	.	8d#\	.	16G#/	.	16d#/	.	8ff#/	.	8r	.	8D#|</J 8G#	.	8d#/) 8f#	8dd#\) 8ff#	.	.	.	.	.	.
.	.	.	.	.	16G#/JJ	.	16g#/JJ	.	.	.	.	.	.	.	.	.	.	.	.	.	.	.
*	*	*	*	*	*	*	*	*	*	*	*Xrep	*	*Xrep	*	*	*	*	*	*	*	*	*
=46	=46	=46	=46	=46	=46	=46	=46	=46	=46	=46	=46	=46	=46	=46	=46	=46	=46	=46	=46	=46	=46	=46
4C#/	.	2.ryy	4.d#\	.	16G#/LL	.	16d#/LL	.	4.ff#^/	.	8CC#/	.	8C#/	.	((4.d#^/ 4.f#	(4.dd#^\ 4.ff#	.	2.G#\]	[2.C#\	2.g#/]	4.d#\	.
.	.	.	.	.	16G#/	.	16g#/	.	.	.	.	.	.	.	.	.	.	.	.	.	.	.
.	.	.	.	.	16G#/	.	16d#/	.	.	.	8r	.	8GG#/L 8C#	.	.	.	.	.	.	.	.	.
.	.	.	.	.	16G#/	.	16g#/	.	.	.	.	.	.	.	.	.	.	.	.	.	.	.
8r	.	.	.	.	16G#/	.	16d#/	.	.	.	8r	.	8C#/J 8F#	.	.	.	.	.	.	.	.	.
.	.	.	.	.	16G#/	.	16g#/JJ)	.	.	.	.	.	.	.	.	.	.	.	.	.	.	.
4C#/	.	.	4.c#\	.	16G#/	.	(16e#/LL	.	8ee#/	.	8CC#/	.	8C#/	.	8c#/)) 8e#	8cc#\) 8ee#	.	.	.	.	4.e#\	.
.	.	.	.	.	16G#/	.	16g#/	.	.	.	.	.	.	.	.	.	.	.	.	.	.	.
.	.	.	.	.	16G#/	.	16e#/	.	8cc#/L	.	8r	.	8GG#/L 8E#	.	8c#/L	8cc#\L	.	.	.	.	.	.
.	.	.	.	.	16G#/	.	16g#/	.	.	.	.	.	.	.	.	.	.	.	.	.	.	.
8r	.	.	.	.	16G#/	.	16e#/	.	8dd#/J	.	8r	.	8E#/J 8G#	.	8d#/J	8dd#\J	.	.	.	.	.	.
.	.	.	.	.	16G#/JJ	.	16g#/JJ)	.	.	.	.	.	.	.	.	.	.	.	.	.	.	.
!!LO:TX:t=P:problem:barlines.color=red
=47	=47	=47	=47	=47	=47	=47	=47	=47	=47	=47	=47	=47	=47	=47	=47	=47	=47	=47	=47	=47	=47	=47
!	!	!	!	!	!	!	!	!	!	!	!LO:TX:b:t=6.:color=grey	!	!	!	!	!LO:TX:b:t=7:color=grey	!	!LO:N:xstem	!LO:N:vis=2	!	!	!
4.B^\	.	2.ryy	4.B^\	<	(<16G#/LL	<	(16c#/LL	<	(8ee#/L	.	4.BBB^/ 4.BB	.	(8C#^<\L 8c#	.	8e#/L	(8ee#\L	<	2.c#/	2.C#\]	2.cc#/	4.g#\	.
.	.	.	.	.	16c#/	.	16g#/	.	.	.	.	.	.	.	.	.	.	.	.	.	.	.
.	.	.	.	.	16G#/	.	16c#/	.	8ff#/)	<	.	.	8G#\)	.	8f#/	8ff#\)	.	.	.	.	.	.
.	.	.	.	.	16c#/	.	16g#/	.	.	.	.	.	.	.	.	.	.	.	.	.	.	.
.	.	.	.	.	16G#/	.	16c#/	.	(>8gg#|</J	.	.	.	8c#\J	.	8g#/J	8gg#\J	.	.	.	.	.	.
.	.	.	.	.	16c#/JJ)	.	16g#/JJ)	.	.	.	.	.	.	.	.	.	.	.	.	.	.	.
8A#|>\L	.	.	8A#|>\L	.	(>16f#\LL	.	16f#^^>/LL	.	8aa#|</L	.	(8AA#'/L	.	(8A#'\L 8c#	.	(>8f#/L 8a#	(8ff#\L 8aa#	.	.	.	.	4.f#\	.
.	.	.	.	.	16c#\	.	16f#/	.	.	.	.	.	.	.	.	.	.	.	.	.	.	.
8G#|>\	.	.	8G#|>\	[	16f#\	.	16g#^^>/	.	8bb|</	.	8GG#'/	.	8G#'\ 8c#	.	8g#/ 8b	8gg#\ 8bb	.	.	.	.	.	.
.	.	.	.	.	16c#\	.	16g#/	.	.	.	.	.	.	.	.	.	.	.	.	.	.	.
8F#|>\J	.	.	8F#|>\J	.	16f#\	.	16a#^^>/	[	8ccc#|</J)	[[	8FF#'/J)	.	8F#'\J) 8c#	.	8a#/J) 8cc#	8aa#\J) 8ccc#	[[	.	.	.	.	.
.	.	.	.	.	16c#\JJ)	[[	16a#/JJ	.	.	.	.	.	.	.	.	.	.	.	.	.	.	.
*	*	*	*	*	*	*	*	*	*	*	*	*	*	*	*	*	*	*v	*v	*	*	*
!!LO:PB:g=original
=48	=48	=48	=48	=48	=48	=48	=48	=48	=48	=48	=48	=48	=48	=48	=48	=48	=48	=48	=48	=48	=48
!	!LO:DY:rj	!	!	!LO:DY:rj	!	!LO:DY:rj	!	!LO:DY:rj	!	!LO:DY:rj	!	!	!	!	!	!	!	!	!	!	!
4.F#\	sf	2.ryy	[2.d#^\	sf	32d#\LLL	sf	32a#\LLL	sf	[<4.ddd#\	sf	4FF#/	.	(8A#\L 8c#	sf	4a#/ 4dd#	[>4.aa#\ [>4.ddd#	sf	4.FF#/ 4.F#	2.dd#/	2.a#\	.
.	.	.	.	.	32d#\	.	32a#\	.	.	.	.	.	.	.	.	.	.	.	.	.	.
.	.	.	.	.	32d#\	.	32a#\	.	.	.	.	.	.	.	.	.	.	.	.	.	.
.	.	.	.	.	32d#\	.	32a#\	.	.	.	.	.	.	.	.	.	.	.	.	.	.
.	.	.	.	.	32d#\	.	32a#\	.	.	.	.	.	8d#\	.	.	.	.	.	.	.	.
.	.	.	.	.	32d#\	.	32a#\	.	.	.	.	.	.	.	.	.	.	.	.	.	.
.	.	.	.	.	32d#\	.	32a#\	.	.	.	.	.	.	.	.	.	.	.	.	.	.
.	.	.	.	.	32d#\	.	32a#\	.	.	.	.	.	.	.	.	.	.	.	.	.	.
.	.	.	.	.	32d#\	.	32a#\	.	.	.	8r	.	8D#\J)	.	8a#|</	.	.	.	.	.	.
.	.	.	.	.	32d#\	.	32a#\	.	.	.	.	.	.	.	.	.	.	.	.	.	.
.	.	.	.	.	32d#\	.	32a#\	.	.	.	.	.	.	.	.	.	.	.	.	.	.
.	.	.	.	.	32d#\JJJ	.	32a#\JJJ	.	.	.	.	.	.	.	.	.	.	.	.	.	.
(4.F##X^\	.	.	.	.	32A#/LLL	.	32f##X/LLL	.	4ddd#\]	.	(4.FF##X/	.	(8F##X^\L 8A#	.	4a#|</	4aa#\] 4ddd#]	.	4.FF##X/ 4.F##X	.	.	.
.	.	.	.	.	32A#/	.	32f##/	.	.	.	.	.	.	.	.	.	.	.	.	.	.
.	.	.	.	.	32A#/	.	32f##/	.	.	.	.	.	.	.	.	.	.	.	.	.	.
.	.	.	.	.	32A#/	.	32f##/	.	.	.	.	.	.	.	.	.	.	.	.	.	.
.	.	.	.	.	32A#/	.	32f##/	.	.	.	.	.	8d#\)	.	.	.	.	.	.	.	.
.	.	.	.	.	32A#/	.	32f##/	.	.	.	.	.	.	.	.	.	.	.	.	.	.
.	.	.	.	.	32A#/	.	32f##/	.	.	.	.	.	.	.	.	.	.	.	.	.	.
.	.	.	.	.	32A#/	.	32f##/	.	.	.	.	.	.	.	.	.	.	.	.	.	.
.	.	.	.	.	32A#/	.	32f##/	.	8ccc#\	.	.	.	8D#\J	.	8a#\ 8cc#	8aa#\ 8ccc#	.	.	.	.	.
.	.	.	.	.	32A#/	.	32f##/	.	.	.	.	.	.	.	.	.	.	.	.	.	.
.	.	.	.	.	32A#/	.	32f##/	.	.	.	.	.	.	.	.	.	.	.	.	.	.
.	.	.	.	.	32A#/JJJ	.	32f##/JJJ	.	.	.	.	.	.	.	.	.	.	.	.	.	.
*	*	*	*	*	*Xtremolo	*	*Xtremolo	*	*	*	*	*	*	*	*	*	*	*	*	*	*
*	*	*	*	*	*	*	*	*	*	*	*	*	*	*	*	*	*	*	*v	*v	*
=49	=49	=49	=49	=49	=49	=49	=49	=49	=49	=49	=49	=49	=49	=49	=49	=49	=49	=49	=49	=49
.	.	.	.	.	.	.	.	.	8qccc#/	>	.	.	.	.	8qa#/ 8qcc#	8qccc#/	.	.	.	.
8G#\)	.	2.ryy	4.d#\]	>	(8d#^/L	.	(8g#^/L	.	8.bb\L	.	8GG#/)	.	(8d#^\L	.	8.g#/L 8.b	8.gg#\L 8.bb	.	4.GG#/ 4.G#	4.dd#/	.
8r	.	.	.	.	8B/)	.	8d#/)	.	.	.	8r	.	8B\)	.	.	.	.	.	.	.
.	.	.	.	.	.	.	.	.	16aa#\K	.	.	.	.	>	16f##X/K 16a#	16ff##X\K 16aa#	>	.	.	.
!	!	!	!	!	!	!	!LO:N:acc=n#	!	!	!	!	!	!	!	!	!	!	!	!	!
8r	.	.	.	.	8G#/J	.	8f#X/J	>	8bb\J	.	8r	.	8G#\J	.	8g#/J 8b	8gg#\J 8bb	.	.	.	.
8C#/	.	.	4c#\	.	(8c#^/L	.	(8e#X/L	.	(8gg#/L	.	8CC#/ 8C#	.	(8c#^\L	.	8e#/L 8g#	8ee#\L 8gg#	.	4.C#/	8cc#/L	.
!	!	!	!	!	!	!	!	!	!	!	!	!	!	!	!LO:N:n=1:acc=n-	!LO:N:n=1:acc=n#	!	!	!	!
8r	.	.	.	.	8B/)	.	8f#/)	.	8aa#/)	.	8r	.	8B\	.	8f#X/ 8a#	8ff#X\ 8aa#	.	.	8b/	.
8r	.	.	8B\	.	8G#/J	.	8g#/J	.	8bb/J	]]	8r	.	8G#\J)	.	8g#/J 8b	8gg#\J 8bb	.	.	8g#/J	.
*	*	*	*	*	*	*	*	*	*X8va	*	*	*	*	*	*	*	*	*	*	*
=50	=50	=50	=50	=50	=50	=50	=50	=50	=50	=50	=50	=50	=50	=50	=50	=50	=50	=50	=50	=50
*	*	*	*	*	*	*	*	*	*^	*	*	*	*	*	*	*	*	*	*	*
*	*	*	*	*	*tremolo	*	*	*	*	*	*	*	*	*	*	*	*	*	*	*	*
!	!	!	!	!	!	!LO:DY:a	!	!	!	!	!	!	!	!	!	!	!	!	!	!	!
8C#/	.	2.ryy	(4A#\	.	32F#/LLL	<	(8a#/L	.	(4.ccc#/	4.cc#\ 4.ccc#	.	8CC#/ 8C#	.	(8A#^\L	.	((4.a#/ 4.cc#	((4.aa#\ 4.ccc#	.	4.C#/	((4.f#/ 4.a#	.
.	.	.	.	.	32F#/	.	.	.	.	.	.	.	.	.	.	.	.	.	.	.	.
.	.	.	.	.	32F#/	.	.	.	.	.	.	.	.	.	.	.	.	.	.	.	.
.	.	.	.	.	32F#/	.	.	.	.	.	.	.	.	.	.	.	.	.	.	.	.
8r	.	.	.	.	32A#/	.	8cc#/)	]	.	.	.	8r	.	8c#\	.	.	.	.	.	.	.
.	.	.	.	.	32A#/	.	.	.	.	.	.	.	.	.	.	.	.	.	.	.	.
.	.	.	.	.	32A#/	.	.	.	.	.	.	.	.	.	.	.	.	.	.	.	.
.	.	.	.	.	32A#/	.	.	.	.	.	.	.	.	.	.	.	.	.	.	.	.
8r	.	.	8f#\)	]	32c#/	.	8ff#/J	.	.	.	.	8r	.	8f#\J)	.	.	.	.	.	.	.
.	.	.	.	.	32c#/	.	.	.	.	.	.	.	.	.	.	.	.	.	.	.	.
.	.	.	.	.	32c#/	.	.	.	.	.	.	.	.	.	.	.	.	.	.	.	.
.	.	.	.	.	32c#/JJJ	.	.	.	.	.	.	.	.	.	.	.	.	.	.	.	.
!	!	!	!	!	!	!	!LO:TX:t=P:problem:brak pauzy 8r	!	!	!	!	!	!	!	!	!	!	!	!	!	!
8C#/	.	.	8c#\	.	32f#\LLL	.	8ryy	.	8aa#/L)	8aa#\	.	8CC#/ 8C#	.	8c#|>\	]	8f#'/)) 8a#	8ff#\)) 8aa#	]	[4.c#\	8a#/)) 8cc#	.
.	.	.	.	.	32f#\	.	.	.	.	.	.	.	.	.	.	.	.	.	.	.	.
.	.	.	.	.	32f#\	.	.	.	.	.	.	.	.	.	.	.	.	.	.	.	.
.	.	.	.	.	32f#\JJ	.	.	.	.	.	.	.	.	.	.	.	.	.	.	.	.
*	*	*	*	*	*Xtremolo	*	*	*	*	*	*	*	*	*	*	*	*	*	*	*	*
!	!	!	!	!	!	!	!	!	!	!	!LO:HP:t=molto cres.	!	!	!	!	!	!	!	!	!	!
8r	.	.	8G#\L	.	8b\	.	8cc#\L	.	8ee#^>/	4ryy	<	8ryy	.	8G#|>\L 8B	.	8c#/L 8e#	8cc#|>\L 8ee#	.	.	8r	.
!	!	!	!	!	!	!	!	!LO:HP:t=molto cres.	!	!	!	!	!	!	!	!	!	!LO:HP:t=molto cres.	!	!	!
8r	.	.	8F#\J	.	8a#\J	[	8dd#\J	<	8ff#^>/J	.	.	8ryy	.	8F#|>\J 8A#	.	8B/J 8d# 8f#	8dd#|>\J 8ff#	<	.	8r	.
*	*	*	*	*	*	*	*	*	*v	*v	*	*	*	*	*	*	*	*	*	*	*
=51	=51	=51	=51	=51	=51	=51	=51	=51	=51	=51	=51	=51	=51	=51	=51	=51	=51	=51	=51	=51
2.r	.	2.ryy	8E#/L	.	(8g#\L	.	8ee#\L	.	(8gg#^\L	.	8r	.	8E#|>\L 8G#	.	8c#/L 8e# 8g#	8ee#|>\L 8gg#	.	2.c#\_	2.r	.
.	.	.	8D#/	.	8f#\)	.	8ff#\	.	8aa#\)	.	8r	.	8D#|>\ 8F#	.	8c#/ 8f# 8a#	8ff#|>\ 8aa#	.	.	.	.
.	.	.	8C#/J	.	8e#\J	.	8gg#\J	.	8bb\J	.	8C#|</	.	8E#|>\J 8c#	.	8c#/J 8g# 8b	8gg#|>\J 8bb	.	.	.	.
.	.	.	8BB/L	.	8d#\L	.	8aa#\L	.	8ccc#^\L	.	8BB|<^^>/L	.	8D#^^\L 8B	.	8c#^^>/L 8a# 8cc#	8aa#^^\L 8ccc#	.	.	.	.
.	.	.	8AA#/	.	8c#\	.	8bb\	.	8ddd#^\	.	8AA#|<^^>/	.	8C#^^\ 8A# 8c#	.	8d#^^>/ 8b 8dd#	8bb^^\ 8ddd#	.	.	.	.
.	.	.	8GG#/J	.	8B\J	.	8ccc#\J	[[	8eee#\J	.	8GG#|<^^>/J	.	8C#^^\J 8G# 8B	.	8e#^^>/J 8cc# 8ee#	8ccc#^^\J 8eee#	.	.	.	.
!!LO:TX:t=P:problem:barlines.color=red
=52	=52	=52	=52	=52	=52	=52	=52	=52	=52	=52	=52	=52	=52	=52	=52	=52	=52	=52	=52	=52
*	*	*	*	*	*	*	*	*	*	*	*	*	*	*	*	*	*	*	*^	*
!	!	!	!	!	!	!	!	!	!	!	!	!	!	!	!	!	!	!	!LO:TX:a:t=Gr. jeu	!	!LO:DY:rj
4r@	.	2.ryy	4FF#/	.	4A#/	.	4ff#\	.	[2.fff#\	ff	4FF#/	.	4C#^^\ 4F# 4A#	.	4f#^^>/ 4cc# 4ff#	4ccc#^^\ 4fff#	.	4c#\]	4.f#\	4r	ff
8r@	.	.	8r	.	8r	.	8r	ff	.	.	8r	.	8r	.	8r	8r	.	8r	.	8r	.
4.Dn^/	.	.	4.Dn^>\ 4.An	.	4.An^/ 4.f#	.	4.dn^/ 4.an 4.ff#	.	.	.	4.DDn^^>/	.	4.Dn^^\ 4.F# 4.An 4.dn	.	4.f#^/ 4.an 4.ddn	[>4.ff#^\ [>4.fff#	.	4.DDn^^>/ 4.Dn	4.f#^^\ 4.an 4.ddn	4.ryy	.
*	*	*	*	*	*	*	*	*	*	*	*	*	*	*	*	*	*	*	*v	*v	*
=53	=53	=53	=53	=53	=53	=53	=53	=53	=53	=53	=53	=53	=53	=53	=53	=53	=53	=53	=53	=53
!LO:TX:b:t=14:color=grey	!	!	!	!	!	!	!	!	!	!	!	!	!	!	!	!	!	!	!	!
!LO:N:vis=4	!	!	!	!	!LO:ACC:color=blue	!	!	!	!	!	!	!	!	!	!	!	!	!	!	!
4.AAn^/	.	2.ryy	4.AAn^>/ 4.F#	.	4.An^/ 4.f#	.	4.f#^/ 4.cc#	.	2.fff#\]	.	4.AAAn^^>/ 4.AAn	.	4.F#^^\ 4.c#	.	4.f#^/ 4.cc#	4.ff#\] 4.fff#]	.	4.AAn^^>\	4.c#^^>/ 4.f# 4.cc#	.
!	!	!	!	!	!	!	!	!	!	!	!LO:SIC:v:s=4.DDn^^>/	!	!	!	!	!LO:T:color=blue	!	!	!	!
4.Dn/	.	.	4.Dn^>\	.	4.A^/ 4.f#	.	4.dn^/ 4.ccn	.	.	.	4.DD#^^>/	.	4.F#\ 4.G##X 4.B#X	.	4.f#/ 4.g##X 4.b#X	[>4.ff#^\ [>4.fff#	.	4.DDn^^>/ 4.Dn	4.f#^^>/ 4.g##X 4.b#X	.
!!LO:PB:g=original
=54	=54	=54	=54	=54	=54	=54	=54	=54	=54	=54	=54	=54	=54	=54	=54	=54	=54	=54	=54	=54
8C#^/	.	2.ryy	8C#^/	.	8A#X/ 8f#	.	8cc#X\	.	4fff#\	.	8CC#/	.	4C#\ 4F# 4A# 4c#	.	4f#/ 4a# 4cc#	4ff#\] 4fff#]	.	8CC#/ 8C#	8f#/ 8a# 8cc#	.
8r	.	.	8r	.	8r	.	8r	.	.	.	8r	.	.	.	.	.	.	8r	8r	.
8r	.	.	8c#'\	.	8r	.	8cc#\	.	8ccc#\	.	8r	.	8c#\	.	8cc#\	8ccc#\	.	8r	8r	.
4r	.	.	4d#^\	.	4r	.	4dd#^\	.	4ddd#^\	.	4r	.	4d#^\	.	4dd#^\	4ddd#^\	.	4r	4r	.
8r	.	.	8A#\	.	8r	.	8a#\	.	8aa#\	.	8r	.	8A#\	.	8a#\	8aa#\	.	8r	8r	.
=55	=55	=55	=55	=55	=55	=55	=55	=55	=55	=55	=55	=55	=55	=55	=55	=55	=55	=55	=55	=55
!LO:N:vis=2	!LO:DY:rj	!	!	!LO:DY:rj	!	!LO:DY:rj	!	!	!	!	!	!	!	!	!	!	!	!LO:N:vis=2	!LO:DY:rj	!
2.C#/	sff	2.ryy	2.c#\	sff	[4.g#\ [4.b	sff	[4.e#/ [4.cc#	.	[4.ccc#\	.	2.CC#/ 2.C#	.	(4.G#\ [4.c#	sff	[>4.e#/ [>4.g# [>4.b [>4.cc#	[<4.ee#\ [>4.gg# [>4.ccc#	sff	2.CC#/ 2.C#	2.e#/ 2.g# 2.b 2.cc#	sff
!	!	!	!	!	!LO:N:vis=4	!	!	!	!	!	!	!	!	!	!	!	!	!	!	!
.	.	.	.	.	4.g#\] 4.b]	.	4e#/] 4cc#]	.	4ccc#\]	.	.	.	4c#\])	.	4e#/] 4g#] 4b] 4cc#]	4ee#\] 4gg#] 4ccc#]	.	.	.	.
*	*	*	*	*	*	*	*	*	*	*	*	*	*Xtuplet	*	*	*	*	*	*	*
!	!	!	!	!	!	!	!LO:TUP:b	!	!LO:TUP:a	!	!	!	!	!	!LO:TUP:b	!LO:TUP:a	!	!	!	!
.	.	.	.	.	.	.	24b/LL	.	24bb\LL	.	.	.	24B\LL	.	24b/LL	24bb\LL	.	.	.	.
.	.	.	.	.	.	.	24a#/	.	24aa#\	.	.	.	24A#\	.	24a#/	24aa#\	.	.	.	.
.	.	.	.	.	.	.	24g#/JJ	.	24gg#\JJ	.	.	.	24G#\JJ	.	24g#/JJ	24gg#\JJ	.	.	.	.
!!LO:TX:t=P:problem:barlines.color=red
=56	=56	=56	=56	=56	=56	=56	=56	=56	=56	=56	=56	=56	=56	=56	=56	=56	=56	=56	=56	=56
!	!LO:DY:rj	!	!	!LO:DY:rj	!LO:TX:t=P:problem:mixed beam	!	!	!	!	!	!	!	!LO:TX:t=P:problem:mixed beam	!LO:DY:rj	!	!LO:DY:rj	!	!	!	!
[2.FF#^/	ff	2.ryy	(8c#\L	ff	(8a#\L	.	4a#/	ff	4ff#\	ff	2.FFF#^/ 2.FF#	.	(8F#\L 8A#	ff	4a#/	4ff#\ 4aa#	ff	[>2.FF#/	(4.f#/ 4.a#	f
.	.	.	8A#\)	.	8cc#\)	.	.	.	.	.	.	.	8c#\)	.	.	.	.	.	.	.
.	.	.	8F#\J	.	8c#/J	.	8cc#/	.	8aa#\	.	.	.	8C#/J	.	8f#/ 8a#	8ff#\ 8aa#	.	.	.	.
.	.	.	.	.	.	.	.	.	4qqaa#/	.	.	.	.	.	.	8qff#/ 8qaa#	.	.	.	.
.	.	.	(8G#\L	.	((8e#\L	.	(8b\L	.	(8gg#\L	.	.	.	8G#\L 8B	.	(8e#/L 8g#	(8ee#\L 8gg#	.	.	8e#/L 8g#	.
.	.	.	8A#\)	.	8d#\)	.	8cc#\)	.	8ff#\)	.	.	.	8A#\ 8c#	.	8f#/)	8dd#\) 8ff#	.	.	8d#/ 8f#	.
.	.	.	8G#\J	.	8e#\J)	.	8b\J	.	8gg#\J	.	.	.	8G#\J 8B	.	8e#/J 8g#	8ee#\J 8gg#	.	.	8e#/J 8g#	.
!!LO:TX:t=P:problem:barlines.color=red
=57	=57	=57	=57	=57	=57	=57	=57	=57	=57	=57	=57	=57	=57	=57	=57	=57	=57	=57	=57	=57
*	*	*	*	*	*	*	*	*	*	*	*rep	*	*	*	*	*	*	*	*	*
!	!	!	!	!	!LO:TX:t=P:problem:mixed beam	!	!	!	!	!	!	!	!LO:TX:t=P:problem:mixed beam	!	!	!	!	!	!	!
2.FF#^/]	.	2.ryy	4A#\	.	(>8f#\L	.	(8a#/L	.	[4.aa#\	.	2.FFF#^/ 2.FF#	.	(8F#\L 8A#	.	4f#/ 4a#	[>4.ff#\ [>4.aa#	.	2.FF#/_>	[>2.f#/) [>2.a#	.
.	.	.	.	.	8A#/)	.	8f#/)	.	.	.	.	.	8c#\)	.	.	.	.	.	.	.
.	.	.	8C#/	.	8c#/J	.	8a#/J	.	.	.	.	.	8C#/J	.	8f#|</ 8a#	.	.	.	.	.
*	*	*	*	*	*	*	*	*	*	*	*	*	*rep	*	*	*	*	*	*	*
!	!	!	!	!	!	!	!	!	!	!	!	!	!LO:TX:t=P:problem:mixed beam	!	!	!	!	!	!	!
.	.	.	[4.F#\	.	(8c#/L	.	(8a#/L	.	4aa#\]	.	.	.	(8F#\L 8A#	.	4f#|</ 4a#	4ff#\] 4aa#]	.	.	.	.
.	.	.	.	.	8A#/)	.	8f#/)	.	.	.	.	.	8c#\)	.	.	.	.	.	.	.
.	.	.	.	.	8c#/J	.	8a#/J	.	8ccc#\	.	.	.	8C#/J	.	8cc#\	8ccc#\	.	.	.	.
*	*	*	*	*	*	*	*	*	*	*	*Xrep	*	*Xrep	*	*	*	*	*	*	*
=58	=58	=58	=58	=58	=58	=58	=58	=58	=58	=58	=58	=58	=58	=58	=58	=58	=58	=58	=58	=58
*	*	*	*	*	*rep	*	*rep	*	*	*	*rep	*	*rep	*	*	*	*	*	*	*
!LO:TX:b:t=15:color=grey	!	!	!	!	!LO:TX:t=P:problem:mixed beam	!	!	!	!	!	!	!	!LO:TX:t=P:problem:mixed beam	!	!	!	!	!	!	!
2.FF#^/	.	2.ryy	4F#\]	.	(>8f#\L	>	(8a#/L	>	[4.ddd#^\	>	2.FFF#^/ 2.FF#	.	(8F#\L 8A#	>	(<[<4.f#^/ [<4.a# [<4.dd#	([4.ddd#^\	.	2.FF#/]	4.f#/_> 4.a#_>	.
.	.	.	.	.	8A#/)	.	8f#/)	.	.	.	.	.	8c#\)	.	.	.	>	.	.	.
.	.	.	8r	.	8c#/J	.	8a#/J	.	.	.	.	.	8C#/J	.	.	.	.	.	.	.
*	*	*	*	*	*	*	*	*	*	*	*	*	*Xrep	*	*	*	*	*	*	*
*	*	*	*	*	*	*	*	*	*	*	*	*	*rep	*	*	*	*	*	*	*
!	!	!	!	!	!	!	!	!	!	!	!	!	!LO:TX:t=P:problem:mixed beam	!	!	!	!	!	!	!
.	.	.	4r	.	(8c#/L	.	(8a#/L	.	8ddd#\L]	.	.	.	(8F#\L 8A#	.	8f#/L] 8a#] 8dd#]	8ddd#\L]	.	.	4f#/] 4a#]	.
.	.	.	.	.	8A#/)	.	8f#/)	.	8ccc#\	.	.	.	8c#\)	.	8cc#/	8ccc#\	]	.	.	.
!	!	!	!	!	!	!	!	!	!	!	!	!	!	!	!	!	!	!	!LO:TX:a:t=O:color=blue	!
.	.	.	8C#/	.	8c#/J	]]	8a#/J	]]	8ff#\J	]]	.	.	8C#/J	]]	8f#/J)	8ff#\J)	.	.	8r	.
*	*	*	*	*	*Xrep	*	*Xrep	*	*	*	*Xrep	*	*Xrep	*	*	*	*	*	*	*
!!LO:PB:g=original
=59	=59	=59	=59	=59	=59	=59	=59	=59	=59	=59	=59	=59	=59	=59	=59	=59	=59	=59	=59	=59
[2.FF#/	.	2.ryy	[4.D#^/	.	4.f#\	.	2.a#/	.	[4.aa#\	.	2.FF#/	.	(8F#\L 8A#	.	[4.a#/ 4.cc#	4.ff#\ [4.aa#	.	4FF#/	2.r	.
.	.	.	.	.	.	.	.	.	.	.	.	.	8c#\	.	.	.	.	.	.	.
!	!	!	!	!	!	!	!	!	!	!	!	!	!	!LO:HP:t=diminuendo	!	!	!	!	!	!
.	.	.	.	.	.	.	.	.	.	.	.	.	8F#\)	>	.	.	.	8r	.	.
!	!	!	!	!	!	!	!	!	!	!LO:HP:t=diminuendo	!	!	!	!	!	!	!LO:HP:t=diminuendo.	!	!	!
.	.	.	8D#/L]	.	4.c#\	.	.	.	4aa#\]	>	.	.	(8A#\	.	4a#/] 4cc#	4ff#\ 4aa#]	>	4r	.	.
!	!	!	!	!LO:HP:t=diminuendo	!	!	!	!	!	!	!	!	!	!	!	!	!	!	!	!
.	.	.	8C#/	>	.	.	.	.	.	.	.	.	8c#\	.	.	.	.	.	.	.
.	.	.	8FF#/J	.	.	.	.	.	8cc#\	.	.	.	8f#\J)	.	8r	8cc#\	.	8r	.	.
=60	=60	=60	=60	=60	=60	=60	=60	=60	=60	=60	=60	=60	=60	=60	=60	=60	=60	=60	=60	=60
2.FF#/_	.	2.ryy	[4.F#\	.	2.A#/	.	4.f#/	.	[4.dd#\	.	2.FF#/	.	8A#\L	.	2.ryy	([4.dd#\	.	2.r	2.r	.
.	.	.	.	.	.	.	.	.	.	.	.	.	8c#\	.	.	.	.	.	.	.
.	.	.	.	.	.	.	.	.	.	.	.	.	8F#\J	.	.	.	.	.	.	.
!	!	!	!	!	!	!	!	!	!LO:TX:t=P:problem:mixed beam	!	!	!	!	!	!	!LO:TX:t=P:problem:mixed beam	!	!	!	!
.	.	.	8F#\]	.	.	.	4.c#/	.	8dd#\L]	.	.	.	8A#\L	.	.	8dd#\L]	.	.	.	.
.	.	.	8r	.	.	.	.	.	8cc#\	.	.	.	8c#\	.	.	8cc#\	.	.	.	.
.	.	.	8A#\	.	.	.	.	.	8f#/J	.	.	.	8f#\J	.	.	8f#/J)	.	.	.	.
=61	=61	=61	=61	=61	=61	=61	=61	=61	=61	=61	=61	=61	=61	=61	=61	=61	=61	=61	=61	=61
!	!	!	!	!	!	!	!	!	!	!	!	!	!	!	!	!	!	!	!LO:TX:t=P:problem:skreślone takty [4]	!
2.FF#/_	.	2.ryy	([4.c#^\	.	[4.F#/	.	[2.f#/	.	[>2.a#/	.	2.FF#/	.	(8c#\L	.	2.ryy	2.f#/ 2.a#	.	2.r	2.r	.
.	.	.	.	.	.	.	.	.	.	.	.	.	8F#\	.	.	.	.	.	.	.
.	.	.	.	.	.	.	.	.	.	.	.	.	8A#\J	.	.	.	.	.	.	.
!	!	!	!	!	!	!	!	!	!	!	!	!	!LO:TX:t=P:problem:mixed beam	!	!	!	!	!	!	!
.	.	.	8c#\L]	.	(8F#/L]	.	.	.	.	.	.	.	8C#/L	.	.	.	.	.	.	.
.	.	.	8A#\	.	8A#/)	.	.	.	.	.	.	.	8A#\)	.	.	.	.	.	.	.
.	.	.	8G#\J)	.	8G#'/J	.	.	.	.	.	.	.	8G#|>\J	.	.	.	.	.	.	.
!!LO:PB:g=original
=62	=62	=62	=62	=62	=62	=62	=62	=62	=62	=62	=62	=62	=62	=62	=62	=62	=62	=62	=62	=62
!LO:TX:t=P:problem:brak zakończenia ligatury	!	!	!	!	!	!	!LO:TX:t=P:problem:brak zakończenia ligatury	!	!	!	!	!	!LO:N:vis=8	!	!	!	!	!	!LO:TX:a:t=(&colon;8&colon;)	!
4FF#/]	.	2.ryy	(8F#\L	.	(8F#/L	.	8f#/]	.	8a#/]	.	8FF#/	.	4F#\	.	2.r	2.r	.	(8F#\L	2.r	p
.	.	.	8A#\	.	8A#/	.	8r	.	(8a#/L	.	8ryy	.	.	.	.	.	.	8A#\	.	.
8r	.	.	8G#\J	.	8G#/J	.	8r	.	8g#/J	.	8ryy	.	8r	.	.	.	.	8G#\J	.	.
4r	.	.	8F#\L	.	8F#/L	.	4r	.	8f#/L	.	4ryy	.	4r	.	.	.	.	8F#\L	.	.
.	.	.	8E#\	.	8E#/)	.	.	.	8e#/	.	.	.	.	.	.	.	.	8E#\	.	.
8r	.	.	8D#\J)	.	8D#/J	.	8r	.	8d#/J	.	8ryy	.	8r	.	.	.	.	8D#\J	.	.
=63	=63	=63	=63	=63	=63	=63	=63	=63	=63	=63	=63	=63	=63	=63	=63	=63	=63	=63	=63	=63
!LO:TX:b:t=16:color=grey	!	!	!	!	!	!	!	!	!	!	!	!	!	!	!	!	!	!	!	!
8r	.	2.ryy	(8C#/L	.	(8C#/L	.	(8c#/L	.	8c#/)	.	2.ryy	.	2.ryy	.	2.r	2.r	.	8C#\L	2.r	.
!LO:TX:b:t=pizzi.	!	!	!	!	!	!	!	!	!	!	!	!	!	!	!	!	!	!	!	!
8F#\L	.	.	8F#/	.	8F#/	.	8f#/	.	8r	.	.	.	.	.	.	.	.	8F#\	.	.
8D#\J	.	.	8D#/J	.	8D#/J	.	8d#/J	.	8r	.	.	.	.	.	.	.	.	8D#\J	.	.
8C#/L	.	.	8C#|</L)	.	8C#/L)	.	8c#^^>/)	.	4r	.	.	.	.	.	.	.	.	8C#/L)	.	.
8AA#/	.	.	8AA#|</	.	8A#'/	.	8r	.	.	.	.	.	.	.	.	.	.	8AA#'/	.	.
8GG#/J	.	.	8GG#|</J	.	8G#'/J	.	8r	.	8r	.	.	.	.	.	.	.	.	8GG#'/J	.	.
=64	=64	=64	=64	=64	=64	=64	=64	=64	=64	=64	=64	=64	=64	=64	=64	=64	=64	=64	=64	=64
!	!	!	!	!	!	!	!	!	!LO:TX:a:i:t=piu lento.	!	!	!	!	!	!	!	!	!	!LO:TX:a:i:t=piu lento.	!
4FF#/	.	2.ryy	4FF#/	.	4F#/	.	4r	.	4r	.	4.ryy	.	4.ryy	.	4.ryy	2.ryy	pp	4FF#/	4r	.
!	!	!	!	!LO:DY:rj	!	!LO:DY:t=pp.:rj	!	!LO:DY:t=pp.	!	!LO:DY:t=pp.	!	!	!	!	!	!	!	!	!	!
8r	.	.	8r	pp	8r	pp	8r	pp	8r	pp	.	.	.	.	.	.	.	8r	8r	.
4C#/	.	.	4G#\	.	4E#X/	.	4B/	.	4c#/	.	4CC#/	.	4C#\ 4E#X 4G# 4B	.	4c#/	.	.	(<4.C#/	(4.c#/	.
8r	.	.	8r	.	8r	.	8r	.	8r	.	8r	.	8r	.	8r	.	.	.	.	.
=65	=65	=65	=65	=65	=65	=65	=65	=65	=65	=65	=65	=65	=65	=65	=65	=65	=65	=65	=65	=65
4FF#/	.	2.ryy	4F#\	.	4F#/	.	4A#/	.	4f#/	.	4FFF#/ 4FF#	.	4D#\ 4F# 4A#	.	4f#/	2.r	.	4.D#/	4.d#/	.
8r	.	.	8r	.	8r	.	8ryy	.	8r	.	8r	.	8r	.	8r	.	.	.	.	.
4C#/	.	.	4c#\	.	4e#X\	.	4B/	.	4g#/	.	4CC#/	.	4C#\ 4G# 4B 4c#	.	4e#X/ 4g#	.	.	4.C#/	4.c#/	.
8r	.	.	8r	.	8r	.	8ryy	.	8r	.	8r	.	8r	.	8r	.	.	.	.	.
=66	=66	=66	=66	=66	=66	=66	=66	=66	=66	=66	=66	=66	=66	=66	=66	=66	=66	=66	=66	=66
*rep	*	*	*	*	*	*	*	*	*	*	*	*	*	*	*	*	*	*	*	*
!	!	!	!	!	!	!	!	!	!	!	!	!	!	!	!	!	!	!LO:N:vis=4	!	!
4FF#/	.	2.ryy	4c#\	.	4f#\	.	4A#/	.	4a#/	.	4FFF#/ 4FF#	.	4C#\ 4F# 4A# 4c#	.	4f#/ 4a#	4r	.	4.F#\	4.f#/	.
8r	.	.	8r	.	8r	.	8r	.	8r	.	8r	.	8r	.	8ryy	8r	.	.	.	.
*	*	*	*	*	*	*	*	*	*	*	*	*	*	*	*	*8va	*	*	*	*
4C#/	.	.	4c#\	.	4g#\	.	4b\	.	4e#/ 4cc#	.	4CC#/	.	4C#\ 4G# 4c#	.	4e#/ 4g# 4b 4cc#	4ee#/ 4gg# 4bb 4ccc#	.	4.G#\	4.g#/	.
8r	.	.	8r	.	8r	.	8r	.	8r	.	8r	.	8r	.	8ryy	8r	.	.	.	.
*Xrep	*	*	*	*	*	*	*	*	*	*	*	*	*	*	*	*	*	*	*	*
=67	=67	=67	=67	=67	=67	=67	=67	=67	=67	=67	=67	=67	=67	=67	=67	=67	=67	=67	=67	=67
*rep	*	*	*	*	*	*	*	*	*	*	*	*	*	*	*	*	*	*	*	*
4FF#/	.	2.ryy	4d#\	.	4f#\	.	4a#/	.	4ff#\	.	4FFF#/ 4FF#	.	4D#\ 4F# 4d#	.	4f#/ 4a# 4cc#	4ff#/ 4aa# 4ccc# 4fff#	.	4.A#\	4.a#/	.
8r	.	.	8r	.	8r	.	8ryy	.	8r	.	8r	.	8r	.	8r	8r	.	.	.	.
4C#/	.	.	4c#\	.	4g#\	.	4cc#\	.	4gg#\	.	4CC#/	.	4C#\ 4c#	.	4g#/ 4b 4cc# 4ee#	4gg#\ 4ccc# 4ggg#	.	4.c#\)	4.cc#\)	.
8r	.	.	8r	.	8r	.	8r	.	8r	.	8r	.	8r	.	8r	8r	.	.	.	.
*Xrep	*	*	*	*	*	*	*	*	*	*	*	*	*	*	*	*	*	*	*	*
!!LO:PB:g=original
=68	=68	=68	=68	=68	=68	=68	=68	=68	=68	=68	=68	=68	=68	=68	=68	=68	=68	=68	=68	=68
*	*	*	*^	*	*^	*	*^	*	*^	*	*	*	*	*	*	*	*	*	*	*
*	*	*	*	*	*	*	*	*	*	*	*	*	*	*	*	*	*ped	*	*	*ped	*	*	*	*
!LO:TX:b:t=17:color=grey	!	!	!	!	!LO:DY:rj	!	!	!LO:DY:rj:t=ppp.	!	!	!	!	!	!LO:DY:t=ppp.	!	!	!LO:TX:t=P:problem:mixed beam	!LO:DY:t=pp.	!	!LO:TX:b:i:t=dolcissimo.	!LO:DY:rj:t=pp.	!	!	!
4FF#/	.	2.ryy	[>2.c#/	[>2.F#\	ppp	[>2.f#/	[>2.A#\	ppp	[>2.cc#/	[>2.a#\	ppp	[>2.aa#/	[>2.ff#\	ppp	2.ryy	.	(16FF#</LL	pp	4f#:\ 4a#: 4cc#: 4ff#:	16aaa#\LL	pp	2.r	2.r	.
.	.	.	.	.	.	.	.	.	.	.	.	.	.	.	.	.	16C#</	.	.	16fff#\	.	.	.	.
!	!	!	!	!	!	!	!	!	!	!	!	!	!	!	!	!	!LO:TX:b:i:t=dolciſsimo.	!	!	!	!	!	!	!
.	.	.	.	.	.	.	.	.	.	.	.	.	.	.	.	.	16F#</	.	.	16eee#\	.	.	.	.
.	.	.	.	.	.	.	.	.	.	.	.	.	.	.	.	.	16G#</	.	.	16ddd#\	.	.	.	.
8r	.	.	.	.	.	.	.	.	.	.	.	.	.	.	.	.	16A#\	.	8r	16ccc#\	.	.	.	.
.	.	.	.	.	.	.	.	.	.	.	.	.	.	.	.	.	16c#\JJ	.	.	16bb\JJ	.	.	.	.
*	*	*	*	*	*	*	*	*	*	*	*	*	*	*	*	*	*	*	*	*X8va	*	*	*	*
!	!	!	!	!	!	!	!	!	!	!	!	!	!	!	!	!	!LO:TX:t=P:problem:mixed beam	!	!	!	!	!	!	!
4r	.	.	.	.	.	.	.	.	.	.	.	.	.	.	.	.	16f#\LL	.	4r	16aa#\LL	.	.	.	.
.	.	.	.	.	.	.	.	.	.	.	.	.	.	.	.	.	16d#\	.	.	16ff#\	.	.	.	.
.	.	.	.	.	.	.	.	.	.	.	.	.	.	.	.	.	16c#\	.	.	16ee#\	.	.	.	.
.	.	.	.	.	.	.	.	.	.	.	.	.	.	.	.	.	16A#\	.	.	16dd#\	.	.	.	.
8r	.	.	.	.	.	.	.	.	.	.	.	.	.	.	.	.	16F#\	.	8r	16cc#\	.	.	.	.
*	*	*	*	*	*	*	*	*	*	*	*	*	*	*	*	*	*Xped	*	*	*Xped	*	*	*	*
.	.	.	.	.	.	.	.	.	.	.	.	.	.	.	.	.	16C#</JJ)	.	.	16b\JJ	.	.	.	.
=69	=69	=69	=69	=69	=69	=69	=69	=69	=69	=69	=69	=69	=69	=69	=69	=69	=69	=69	=69	=69	=69	=69	=69	=69
*rep	*	*	*rep	*rep	*	*rep	*rep	*	*rep	*rep	*	*rep	*rep	*	*	*	*	*	*	*	*	*	*	*
!	!	!	!	!	!	!	!	!	!	!	!	!	!	!	!	!	!LO:TX:t=P:problem:mixed beam	!	!	!	!	!	!	!
4FF#/	.	2.ryy	2.c#/_>	2.F#\_>	.	2.f#/_>	2.A#\_>	.	2.cc#/_>	2.a#\_>	.	2.aa#/_>	2.ff#\_>	.	2.ryy	.	(16FF#</LL	.	2.r	16a#\LL	.	2.r	2.r	.
.	.	.	.	.	.	.	.	.	.	.	.	.	.	.	.	.	16C#</	.	.	16cc#\	.	.	.	.
.	.	.	.	.	.	.	.	.	.	.	.	.	.	.	.	.	16F#</	.	.	16dd#\	.	.	.	.
.	.	.	.	.	.	.	.	.	.	.	.	.	.	.	.	.	16G#</	.	.	16ee#\	.	.	.	.
8r	.	.	.	.	.	.	.	.	.	.	.	.	.	.	.	.	16A#\	.	.	16ff#\	.	.	.	.
.	.	.	.	.	.	.	.	.	.	.	.	.	.	.	.	.	16c#\JJ	.	.	16gg#\JJ	.	.	.	.
*	*	*	*	*	*	*	*	*	*	*	*	*	*	*	*	*	*	*	*	*8va	*	*	*	*
!	!	!	!	!	!	!	!	!	!	!	!	!	!	!	!	!	!LO:TX:t=P:problem:mixed beam	!	!	!	!	!	!	!
4r	.	.	.	.	.	.	.	.	.	.	.	.	.	.	.	.	16f#\LL	.	.	16aa#\LL	.	.	.	.
.	.	.	.	.	.	.	.	.	.	.	.	.	.	.	.	.	16A#\	.	.	16ccc#\	.	.	.	.
.	.	.	.	.	.	.	.	.	.	.	.	.	.	.	.	.	16c#\	.	.	16ddd#\	.	.	.	.
.	.	.	.	.	.	.	.	.	.	.	.	.	.	.	.	.	16F#\	.	.	16eee#\	.	.	.	.
8r	.	.	.	.	.	.	.	.	.	.	.	.	.	.	.	.	16A#\	.	.	16fff#\	.	.	.	.
.	.	.	.	.	.	.	.	.	.	.	.	.	.	.	.	.	16C#</JJ)	.	.	16ggg#\JJ	.	.	.	.
*Xrep	*	*	*Xrep	*Xrep	*	*Xrep	*Xrep	*	*Xrep	*Xrep	*	*Xrep	*Xrep	*	*	*	*	*	*	*	*	*	*	*
=70	=70	=70	=70	=70	=70	=70	=70	=70	=70	=70	=70	=70	=70	=70	=70	=70	=70	=70	=70	=70	=70	=70	=70	=70
*	*	*	*	*	*	*	*	*	*	*	*	*	*	*	*	*	*rep	*	*	*rep	*	*	*	*
!	!	!	!	!	!	!	!	!	!	!	!	!	!	!	!LO:TX:t=P:problem:repetycja fragmentu 2-taktowego	!	!LO:TX:t=P:problem:repetycja fragmentu 2-taktowego	!	!LO:TX:t=P:problem:repetycja fragmentu 2-taktowego	!	!	!	!	!
!	!	!	!	!	!LO:DY:rj	!	!	!LO:DY:rj	!	!	!LO:DY:rj	!	!	!LO:DY:rj	!	!	!LO:TX:t=P:problem:mixed beam	!	!	!	!	!	!	!
4FF#/	.	2.ryy	2.c#/_>	2.F#^\_< 2.c#	ppp	2.f#/_>	2.A#^\_>	ppp	2.cc#/_>	2.a#^\_>	ppp	2.aa#/_>	2.ff#^\_>	ppp	2.ryy	.	(16FF#</LL	.	4f#:\ 4a#: 4cc#: 4ff#:	16aaa#\LL	.	2.r	2.r	.
.	.	.	.	.	.	.	.	.	.	.	.	.	.	.	.	.	16C#</	.	.	16fff#\	.	.	.	.
.	.	.	.	.	.	.	.	.	.	.	.	.	.	.	.	.	16F#</	.	.	16eee#\	.	.	.	.
.	.	.	.	.	.	.	.	.	.	.	.	.	.	.	.	.	16G#</	.	.	16ddd#\	.	.	.	.
8r	.	.	.	.	.	.	.	.	.	.	.	.	.	.	.	.	16A#\	.	8r	16ccc#\	.	.	.	.
.	.	.	.	.	.	.	.	.	.	.	.	.	.	.	.	.	16c#\JJ	.	.	16bb\JJ	.	.	.	.
*	*	*	*	*	*	*	*	*	*	*	*	*	*	*	*	*	*	*	*	*X8va	*	*	*	*
!	!	!	!	!	!	!	!	!	!	!	!	!	!	!	!	!	!LO:TX:t=P:problem:mixed beam	!	!	!	!	!	!	!
4r	.	.	.	.	.	.	.	.	.	.	.	.	.	.	.	.	16f#\LL	.	4r	16aa#\LL	.	.	.	.
.	.	.	.	.	.	.	.	.	.	.	.	.	.	.	.	.	16d#\	.	.	16ff#\	.	.	.	.
.	.	.	.	.	.	.	.	.	.	.	.	.	.	.	.	.	16c#\	.	.	16ee#\	.	.	.	.
.	.	.	.	.	.	.	.	.	.	.	.	.	.	.	.	.	16A#\	.	.	16dd#\	.	.	.	.
8r	.	.	.	.	.	.	.	.	.	.	.	.	.	.	.	.	16F#\	.	8r	16cc#\	.	.	.	.
.	.	.	.	.	.	.	.	.	.	.	.	.	.	.	.	.	16C#</JJ)	.	.	16b\JJ	.	.	.	.
*	*	*	*	*	*	*	*	*	*	*	*	*	*	*	*	*	*Xrep	*	*	*Xrep	*	*	*	*
=71	=71	=71	=71	=71	=71	=71	=71	=71	=71	=71	=71	=71	=71	=71	=71	=71	=71	=71	=71	=71	=71	=71	=71	=71
*	*	*	*rep	*rep	*	*rep	*rep	*	*rep	*rep	*	*rep	*rep	*	*	*	*rep	*	*	*rep	*	*	*	*
!	!	!	!	!	!	!	!	!	!	!	!	!	!	!	!	!	!LO:TX:t=P:problem:mixed beam	!	!	!	!	!	!	!
2.r	.	2.ryy	2.c#/]	2.F#^\] 2.c#	.	2.f#/]	2.A#^\]	.	2.cc#/]	2.a#\]	.	2.aa#/]	2.ff#\]	.	2.ryy	.	(16FF#</LL	.	2.r	16a#\LL	.	2.r	2.r	.
.	.	.	.	.	.	.	.	.	.	.	.	.	.	.	.	.	16C#</	.	.	16cc#\	.	.	.	.
.	.	.	.	.	.	.	.	.	.	.	.	.	.	.	.	.	16F#</	.	.	16dd#\	.	.	.	.
.	.	.	.	.	.	.	.	.	.	.	.	.	.	.	.	.	16G#</	.	.	16ee#\	.	.	.	.
.	.	.	.	.	.	.	.	.	.	.	.	.	.	.	.	.	16A#\	.	.	16ff#\	.	.	.	.
.	.	.	.	.	.	.	.	.	.	.	.	.	.	.	.	.	16c#\JJ	.	.	16gg#\JJ	.	.	.	.
*	*	*	*	*	*	*	*	*	*	*	*	*	*	*	*	*	*	*	*	*8va	*	*	*	*
!	!	!	!	!	!	!	!	!	!	!	!	!	!	!	!	!	!LO:TX:t=P:problem:mixed beam	!	!	!	!	!	!	!
.	.	.	.	.	.	.	.	.	.	.	.	.	.	.	.	.	16f#\LL	.	.	16aa#\LL	.	.	.	.
.	.	.	.	.	.	.	.	.	.	.	.	.	.	.	.	.	16A#\	.	.	16ccc#\	.	.	.	.
.	.	.	.	.	.	.	.	.	.	.	.	.	.	.	.	.	16c#\	.	.	16ddd#\	.	.	.	.
.	.	.	.	.	.	.	.	.	.	.	.	.	.	.	.	.	16F#\	.	.	16eee#\	.	.	.	.
.	.	.	.	.	.	.	.	.	.	.	.	.	.	.	.	.	16A#\	.	.	16fff#\	.	.	.	.
.	.	.	.	.	.	.	.	.	.	.	.	.	.	.	.	.	16C#</JJ)	.	.	16ggg#\JJ	.	.	.	.
*	*	*	*Xrep	*Xrep	*	*Xrep	*Xrep	*	*Xrep	*Xrep	*	*Xrep	*Xrep	*	*	*	*Xrep	*	*	*Xrep	*	*	*	*
*	*	*	*v	*v	*	*	*	*	*	*	*	*	*	*	*	*	*	*	*	*	*	*	*	*
=72	=72	=72	=72	=72	=72	=72	=72	=72	=72	=72	=72	=72	=72	=72	=72	=72	=72	=72	=72	=72	=72	=72	=72
*	*	*	*	*	*	*	*	*	*	*	*	*	*	*	*	*ped	*	*	*ped	*	*	*	*
!LO:TX:b:t=18:color=grey	!	!	!	!	!	!	!	!	!	!	!	!	!	!	!	!	!	!	!	!LO:DY:rj	!	!	!
4F#\	.	2.ryy	[4.F#\ [4.c#	.	[4.f#/	[4.A#\	.	[4.cc#/	[4.a#\	.	[>4.aa#/	[>4.ff#\	.	4FF#/	.	2.r	.	(8aa#|>\L	(8aaa#|>\L	ppp	2.r	2.r	.
.	.	.	.	.	.	.	.	.	.	.	.	.	.	.	.	.	.	8ff#|>\	8fff#|>\	.	.	.	.
8r	.	.	.	.	.	.	.	.	.	.	.	.	.	8r	.	.	.	8dd#|>\J	8ddd#|>\J	.	.	.	.
*	*	*	*	*	*v	*v	*	*	*	*	*v	*v	*	*	*	*	*	*	*	*	*	*	*
*	*	*	*	*	*	*	*v	*v	*	*	*	*	*	*	*	*	*	*	*	*	*
*	*	*	*	*	*	*	*	*	*	*	*	*	*	*	*	*X8va	*	*	*	*
*	*	*	*	*	*^	*	*^	*	*^	*	*	*	*	*	*	*	*	*	*	*
!	!	!	!LO:TX:b:i:t=ralent	!	!LO:TX:b:i:t=ralent	!	!	!LO:TX:b:i:t=ralent	!	!	!LO:TX:b:i:t=ralent	!	!	!	!	!	!	!	!LO:TX:b:i:t=ralent	!	!	!	!
4r	.	.	8F#\] 8c#]	.	8f#/]	8A#\]	.	8cc#/]	8a#\]	.	8aa#/]	8ff#\]	.	4r	.	.	.	8cc#'/L	8cc#\L	.	.	.	.
.	.	.	8r	.	8r	8ryy	.	8r	8ryy	.	8r	8ryy	.	.	.	.	.	8a#'/	8aa#|>\	.	.	.	.
8r	.	.	8r	.	8r	8ryy	.	8r	8ryy	.	8r	8ryy	.	8r	.	.	.	8f#'/J)	8ff#|>\J	.	.	.	.
*	*	*	*	*	*v	*v	*	*	*	*	*v	*v	*	*	*	*	*	*	*	*	*	*	*
*	*	*	*	*	*	*	*v	*v	*	*	*	*	*	*	*	*	*	*	*	*	*
=73	=73	=73	=73	=73	=73	=73	=73	=73	=73	=73	=73	=73	=73	=73	=73	=73	=73	=73	=73	=73
*rep	*	*	*	*	*	*	*	*	*	*	*	*	*	*	*	*	*	*	*	*
!	!	!	!	!	!	!	!	!	!	!	!	!	!	!LO:DY:t=ppp.	!	!	!	!	!	!
4F#\	.	2.ryy	[4.F#\	.	[4.c#/	.	[4.a#/	.	[4.ff#\	.	2.r	.	(8d#'\L	ppp	4r	8dd#|>/L	.	2.ryy	2.r	.
.	.	.	.	.	.	.	.	.	.	.	.	.	8c#'\	.	.	8cc#|>/	.	.	.	.
8r	.	.	.	.	.	.	.	.	.	.	.	.	8A#'\J	.	8r	8a#|>/J	.	.	.	.
4r	.	.	8F#\]	.	8c#/]	.	8a#/]	.	8ff#\]	.	.	.	8F#'/L	.	8r	8f#|>/)	.	.	.	.
.	.	.	8r	.	8r	.	8r	.	8r	.	.	.	8C#'/	.	(>8c#|>/L	8r	.	.	.	.
8r	.	.	8r	.	8r	.	8r	.	8r	.	.	.	8AA#'/J)	.	8A#|>/J	8r	.	.	.	.
*Xrep	*	*	*	*	*	*	*	*	*	*	*	*	*	*	*	*	*	*	*	*
=74	=74	=74	=74	=74	=74	=74	=74	=74	=74	=74	=74	=74	=74	=74	=74	=74	=74	=74	=74	=74
4FF#/	.	2.ryy	2.FF#;/	.	2.C#;/	.	2.A#;/	.	2.f#;/	.	2.r;	.	4FF#/	.	4F#/)	2.r;	.	2.r;	2.r;	.
!	!	!	!	!	!	!	!	!	!	!	!	!	!	!	!LO:TX:t=P:problem:fermata na trzech pauzach	!	!	!	!	!
8r	.	.	.	.	.	.	.	.	.	.	.	.	8r	.	8r;	.	.	.	.	.
!LO:TX:t=P:problem:fermata na dwóch pauzach	!	!	!	!	!	!	!	!	!	!	!	!	!LO:TX:t=P:problem:fermata na dwóch pauzach	!	!	!	!	!	!	!
4r;	.	.	.	.	.	.	.	.	.	.	.	.	4r;	.	4r	.	.	.	.	.
8r	.	.	.	.	.	.	.	.	.	.	.	.	8r	.	8r	.	.	.	.	.
!!LO:PB:g=original
==	==	==	==	==	==	==	==	==	==	==	==	==	==	==	==	==	==	==	==	==
*-	*-	*-	*-	*-	*-	*-	*-	*-	*-	*-	*-	*-	*-	*-	*-	*-	*-	*-	*-	*-
!!!system-decoration: [(s1,s2)][{(s3,s4)}{(s5,s6)}](s7,s8,s9,s10,s11,s12)
!!!RDF**kern: < = below
!!!RDF**kern: > = above
!!!RDF**kern: | = vertical stroke
!!!RDF**kern: @ = marked note, color=blue
!!!ENC: Andrzej Kubiczek
!!!END: 2021-08-23
!!!ENC: Marta Chmielewska
!!!END: 2021-09-13
